; HEADER_BLOCK_START
; generated by Creality_Print V6.0.0.1078 on 2025-01-03 at 13:53:11
; total layer number: 92
; filament_density: 1.24
; filament_diameter: 1.75
; max_z_height: 18.00
; HEADER_BLOCK_END

; THUMBNAIL_BLOCK_START

;
; THUMBNAIL_BLOCK_END

; THUMBNAIL_BLOCK_START

;
; THUMBNAIL_BLOCK_END

; external perimeters extrusion width = 0.42mm
; perimeters extrusion width = 0.45mm
; infill extrusion width = 0.45mm
; solid infill extrusion width = 0.42mm
; top infill extrusion width = 0.42mm
; support material extrusion width = 0.42mm
; first layer extrusion width = 0.50mm

; EXECUTABLE_BLOCK_START
EXCLUDE_OBJECT_DEFINE NAME=Struttura_intera.stl_id_0_copy_0 CENTER=110,110 POLYGON=[[63,47.5],[157,47.5],[157,172.5],[63,172.5],[63,47.5]]
M73 P0 R24
;TYPE:Custom
M220 S100 ;Reset Feedrate 
M221 S100 ;Reset Flowrate 
 
M140 S50 ;Set final bed temp  
G28 ;Home 
 
G92 E0 ;Reset Extruder 
G1 Z2.0 F3000 ;Move Z Axis up 
M104 S220 ;Set final nozzle temp  
G1 X-2.0 Y20 Z0.28 F5000.0 ;Move to start position 
M190 S50 ;Wait for bed temp to stabilize  
M109 S220 ;Wait for nozzle temp to stabilize  
G1 X-2.0 Y145.0 Z0.28 F1500.0 E15 ;Draw the first line 
G1 X-1.7 Y145.0 Z0.28 F5000.0 ;Move to side a little 
G1 X-1.7 Y20 Z0.28 F1500.0 E30 ;Draw the second line 
G92 E0 ;Reset Extruder 
G1 E-1.0000 F1800 ;Retract a bit 
G1 Z2.0 F3000 ;Move Z Axis up 
G1 E0.0000 F1800
G90
G21
M83 ; use relative distances for extrusion
; filament start gcode
SET_PRESSURE_ADVANCE ADVANCE=0.044; Override pressure advance value
G1 E-.8 F1800
M106 S0
;LAYER_CHANGE
;Z:0.2
;HEIGHT:0.2
;BEFORE_LAYER_CHANGE
;0.2
G92 E0

;_SET_FAN_SPEED_CHANGING_LAYER
SET_VELOCITY_LIMIT ACCEL=500 ACCEL_TO_DECEL=125
SET_VELOCITY_LIMIT SQUARE_CORNER_VELOCITY=9
; printing object Struttura_intera.stl id:0 copy 0
EXCLUDE_OBJECT_START NAME=Struttura_intera.stl_id_0_copy_0
G1 Z.2 F18000
G1 X67.873 Y63.551
G1 E.8 F1800
;TYPE:Support interface
;WIDTH:0.5
G1 F3000
G1 X67.873 Y63.834 E.01019
G1 X65.539 Y63.834 E.0843
G1 X65.539 Y64.411 E.02084
G1 X67.296 Y64.411 E.06346
G1 X67.296 Y64.693 E.01019
G1 X67.873 Y65.27 F18000
G1 F3000
G1 X67.873 Y64.988 E.01019
G1 X65.539 Y64.988 E.0843
G1 X65.539 Y65.565 E.02084
G1 X68.45 Y65.565 E.10513
G1 X68.45 Y65.84 E.00994
G1 E-.56 F1800
;WIPE_START
G1 F3000
G1 X68.45 Y65.565 E-.0661
G1 X67.726 Y65.565 E-.1739
;WIPE_END
G1 X70.667 Y67.997 Z.4 F18000
G1 X71.913 Y69.027 Z.4
G1 Z.2
G1 E.8 F1800
G1 F3000
G1 X65.539 Y69.027 E.23015
G1 X65.539 Y68.45 E.02084
M73 P0 R23
M73 P0 R23
G1 X72.49 Y68.45 E.25099
G1 X72.49 Y68.168 E.01019
G1 X73.067 Y67.873 F18000
G1 F3000
G1 X65.539 Y67.873 E.27182
G1 X65.539 Y67.296 E.02084
G1 X73.067 Y67.296 E.27182
G1 X73.067 Y66.719 E.02084
G1 X65.539 Y66.719 E.27182
G1 X65.539 Y66.142 E.02084
G1 X73.067 Y66.142 E.27182
G1 X73.067 Y65.565 E.02084
G1 X69.604 Y65.565 E.12502
G1 X69.604 Y65.84 E.00994
G1 X70.182 Y65.27 F18000
G1 F3000
G1 X70.182 Y64.988 E.01019
G1 X73.067 Y64.988 E.10418
G1 X73.067 Y64.411 E.02084
M73 P1 R23
M73 P1 R23
G1 X70.759 Y64.411 E.08335
G1 X70.759 Y64.128 E.01019
G1 X70.182 Y63.834 F18000
G1 F3000
G1 X73.067 Y63.834 E.10418
G1 X73.067 Y63.257 E.02084
G1 X69.604 Y63.257 E.12502
G1 X69.604 Y62.981 E.00994
G1 X68.45 Y62.981 F18000
G1 F3000
G1 X68.45 Y63.257 E.00994
G1 X65.539 Y63.257 E.10513
G1 X65.539 Y62.68 E.02084
G1 X73.067 Y62.68 E.27182
G1 X73.067 Y62.102 E.02084
G1 X65.539 Y62.102 E.27182
G1 X65.539 Y61.525 E.02084
G1 X73.067 Y61.525 E.27182
G1 X73.067 Y60.948 E.02084
G1 X65.539 Y60.948 E.27182
G1 X65.539 Y60.371 E.02084
G1 X72.49 Y60.371 E.25099
G1 X72.49 Y60.653 E.01019
G1 E-.56 F1800
;WIPE_START
G1 F3000
G1 X72.49 Y60.371 E-.06775
G1 X71.772 Y60.371 E-.17225
;WIPE_END
G1 X75.588 Y60.371 Z.4 F18000
G1 X147.51 Y60.371 Z.4
G1 Z.2
G1 E.8 F1800
G1 F3000
G1 X154.461 Y60.371 E.25098
G1 X154.461 Y60.948 E.02084
G1 X146.933 Y60.948 E.27182
G1 X146.933 Y61.525 E.02084
G1 X154.461 Y61.525 E.27182
G1 X154.461 Y62.102 E.02084
G1 X146.933 Y62.102 E.27182
G1 X146.933 Y62.68 E.02084
G1 X154.461 Y62.68 E.27182
G1 X154.461 Y63.257 E.02084
G1 X151.55 Y63.257 E.10513
G1 X151.55 Y62.981 E.00994
G1 X152.127 Y63.551 F18000
G1 F3000
G1 X152.127 Y63.834 E.01019
G1 X154.461 Y63.834 E.08429
G1 X154.461 Y64.411 E.02084
G1 X152.704 Y64.411 E.06346
G1 X152.704 Y64.693 E.01019
G1 X152.127 Y64.988 F18000
G1 F3000
G1 X154.461 Y64.988 E.08429
G1 X154.461 Y65.565 E.02084
G1 X151.55 Y65.565 E.10513
G1 X151.55 Y65.84 E.00994
G1 E-.56 F1800
;WIPE_START
G1 F3000
G1 X151.55 Y65.565 E-.0661
G1 X152.274 Y65.565 E-.1739
;WIPE_END
G1 X150.396 Y62.981 Z.4 F18000
G1 Z.2
G1 E.8 F1800
G1 F3000
G1 X150.396 Y63.257 E.00994
G1 X146.933 Y63.257 E.12502
G1 X146.933 Y63.834 E.02084
G1 X149.819 Y63.834 E.10418
G1 X149.241 Y64.693 F18000
G1 F3000
G1 X149.241 Y64.411 E.01019
G1 X146.933 Y64.411 E.08335
G1 X146.933 Y64.988 E.02084
G1 X149.819 Y64.988 E.10418
G1 X149.819 Y65.27 E.01019
G1 X150.396 Y65.84 F18000
G1 F3000
G1 X150.396 Y65.565 E.00994
G1 X146.933 Y65.565 E.12502
G1 X146.933 Y66.142 E.02084
G1 X154.461 Y66.142 E.27182
G1 X154.461 Y66.719 E.02084
G1 X146.933 Y66.719 E.27182
G1 X146.933 Y67.296 E.02084
G1 X154.461 Y67.296 E.27182
G1 X154.461 Y67.873 E.02084
G1 X146.933 Y67.873 E.27182
G1 X147.51 Y68.168 F18000
G1 F3000
G1 X147.51 Y68.45 E.01019
G1 X154.461 Y68.45 E.25098
G1 X154.461 Y69.027 E.02084
G1 X148.087 Y69.027 E.23015
G1 E-.56 F1800
;WIPE_START
G1 F3000
G1 X149.087 Y69.027 E-.24
;WIPE_END
G1 X149.291 Y72.838 Z.4 F18000
G1 X154.461 Y169.628 Z.4
G1 Z.2
G1 E.8 F1800
G1 F3000
G1 X154.461 Y169.961 E.01205
G1 X146.933 Y169.961 E.27182
G1 X146.933 Y169.439 E.01886
G1 X154.461 Y169.439 E.27182
G1 X154.461 Y168.862 E.02084
G1 X146.933 Y168.862 E.27182
G1 X146.933 Y168.285 E.02084
G1 X154.461 Y168.285 E.27182
G1 X154.461 Y167.708 E.02084
G1 X146.933 Y167.708 E.27182
G1 X146.933 Y167.131 E.02084
G1 X154.461 Y167.131 E.27182
G1 X154.461 Y166.554 E.02084
G1 X146.933 Y166.554 E.27182
G1 X146.933 Y165.977 E.02084
G1 X154.461 Y165.977 E.27182
G1 X154.461 Y165.4 E.02084
G1 X152.127 Y165.4 E.08429
G1 X152.704 Y165.211 F18000
G1 F3000
G1 X152.704 Y164.823 E.01403
G1 X154.461 Y164.823 E.06346
G1 X154.461 Y164.245 E.02084
G1 X152.704 Y164.245 E.06346
G1 X152.704 Y163.963 E.01019
G1 X152.127 Y163.393 F18000
G1 F3000
G1 X152.127 Y163.668 E.00994
G1 X154.461 Y163.668 E.08429
G1 X154.461 Y163.091 E.02084
G1 X146.933 Y163.091 E.27182
G1 X146.933 Y162.514 E.02084
G1 X154.461 Y162.514 E.27182
G1 X154.461 Y161.937 E.02084
G1 X146.933 Y161.937 E.27182
G1 X146.933 Y161.36 E.02084
G1 X154.461 Y161.36 E.27182
G1 X154.461 Y160.783 E.02084
G1 X146.933 Y160.783 E.27182
G1 X147.51 Y160.783 F18000
G1 F3000
G1 X147.51 Y160.206 E.02083
G1 X154.461 Y160.206 E.25098
G1 X154.461 Y160.594 E.01403
G1 E-.56 F1800
;WIPE_START
G1 F3000
G1 X154.461 Y160.206 E-.09323
G1 X153.85 Y160.206 E-.14677
;WIPE_END
G1 X150.856 Y162.573 Z.4 F18000
G1 X149.819 Y163.393 Z.4
G1 Z.2
G1 E.8 F1800
G1 F3000
G1 X149.819 Y163.668 E.00994
G1 X146.933 Y163.668 E.10418
G1 X146.933 Y164.245 E.02084
G1 X149.241 Y164.245 E.08335
G1 X149.241 Y164.823 E.02084
G1 X146.933 Y164.823 E.08335
G1 X146.933 Y165.4 E.02084
G1 X149.819 Y165.4 E.10418
G1 X149.819 Y165.977 E.02083
M73 P2 R23
M73 P2 R23
G1 E-.56 F1800
;WIPE_START
G1 F3000
G1 X149.819 Y165.4 E-.13848
G1 X149.396 Y165.4 E-.10152
;WIPE_END
G1 X145.585 Y165.611 Z.4 F18000
G1 X73.067 Y169.628 Z.4
G1 Z.2
G1 E.8 F1800
G1 F3000
G1 X73.067 Y169.961 E.01205
G1 X65.539 Y169.961 E.27182
G1 X65.539 Y169.439 E.01886
G1 X73.067 Y169.439 E.27182
G1 X73.067 Y168.862 E.02084
G1 X65.539 Y168.862 E.27182
G1 X65.539 Y168.285 E.02084
G1 X73.067 Y168.285 E.27182
G1 X73.067 Y167.708 E.02084
G1 X65.539 Y167.708 E.27182
G1 X65.539 Y167.131 E.02084
G1 X73.067 Y167.131 E.27182
G1 X73.067 Y166.554 E.02084
G1 X65.539 Y166.554 E.27182
G1 X65.539 Y165.977 E.02084
G1 X73.067 Y165.977 E.27182
G1 X73.067 Y165.4 E.02084
G1 X70.182 Y165.4 E.10418
G1 X70.759 Y165.211 F18000
G1 F3000
G1 X70.759 Y164.823 E.01403
G1 X73.067 Y164.823 E.08335
G1 X73.067 Y164.245 E.02084
G1 X70.759 Y164.245 E.08335
G1 X70.759 Y163.963 E.01019
G1 X70.182 Y163.393 F18000
G1 F3000
G1 X70.182 Y163.668 E.00994
G1 X73.067 Y163.668 E.10418
G1 X73.067 Y163.091 E.02084
G1 X65.539 Y163.091 E.27182
G1 X65.539 Y162.514 E.02084
G1 X73.067 Y162.514 E.27182
G1 X73.067 Y161.937 E.02084
G1 X65.539 Y161.937 E.27182
G1 X65.539 Y161.36 E.02084
G1 X73.067 Y161.36 E.27182
G1 X73.067 Y160.783 E.02083
G1 X65.539 Y160.783 E.27182
G1 X65.539 Y160.206 E.02083
G1 X72.49 Y160.206 E.25099
G1 X72.49 Y160.594 E.01403
G1 E-.56 F1800
;WIPE_START
G1 F3000
G1 X72.49 Y160.206 E-.09323
G1 X71.878 Y160.206 E-.14677
;WIPE_END
G1 X68.892 Y162.582 Z.4 F18000
G1 X67.873 Y163.393 Z.4
G1 Z.2
G1 E.8 F1800
G1 F3000
G1 X67.873 Y163.668 E.00994
G1 X65.539 Y163.668 E.0843
G1 X65.539 Y164.245 E.02084
G1 X67.296 Y164.245 E.06346
G1 X67.296 Y164.823 E.02084
G1 X65.539 Y164.823 E.06346
G1 X65.539 Y165.4 E.02084
G1 X67.873 Y165.4 E.0843
G1 X67.873 Y165.977 E.02083
G1 E-.56 F1800
;WIPE_START
G1 F3000
G1 X67.873 Y165.4 E-.13848
G1 X67.45 Y165.4 E-.10152
;WIPE_END
G1 X63.662 Y165.857 Z.4 F18000
G1 X62.671 Y165.977 Z.4
G1 Z.2
G1 E.8 F1800
;TYPE:Brim
G1 F3000
G1 X62.671 Y172.5 E.23553
G1 X62.696 Y172.616 E.00429
G1 X62.805 Y172.753 E.00632
G1 X62.889 Y172.8 E.0035
G1 X63 Y172.829 E.00413
G1 X71.233 Y172.829 E.29726
G1 X70.985 Y174.715 E.06871
G1 X70.15 Y176.73 E.07874
G1 X68.822 Y178.46 E.07874
G1 X67.092 Y179.788 E.07874
G1 X65.077 Y180.622 E.07874
G1 X62.915 Y180.907 E.07874
G1 X60.753 Y180.622 E.07874
G1 X58.738 Y179.788 E.07874
G1 X57.008 Y178.46 E.07874
G1 X55.681 Y176.73 E.07874
G1 X54.846 Y174.715 E.07874
G1 X54.561 Y172.553 E.07874
G1 X54.846 Y170.391 E.07874
G1 X55.681 Y168.376 E.07874
G1 X57.008 Y166.646 E.07874
G1 X58.738 Y165.318 E.07874
G1 X60.753 Y164.484 E.07874
G1 X62.671 Y164.231 E.06986
G1 X62.671 Y165.937 E.06158
G1 X62.214 Y165.937 F18000
G1 F3000
G1 X62.214 Y172.489 E.2366
G1 X62.246 Y172.697 E.00758
G1 X62.348 Y172.914 E.00865
G1 X62.439 Y173.027 E.00525
G1 X62.657 Y173.194 E.00992
G1 X62.882 Y173.27 E.00857
G1 X63.009 Y173.286 E.0046
G1 X70.555 Y173.286 E.27248
G1 X70.659 Y173.333 E.00413
G1 X70.691 Y173.441 E.00404
G1 X70.532 Y174.613 E.0427
G1 X69.758 Y176.483 E.07309
G1 X68.482 Y178.145 E.07565
G1 X66.845 Y179.396 E.07437
G1 X64.94 Y180.18 E.07437
G1 X62.933 Y180.444 E.07309
G1 X60.856 Y180.17 E.07565
G1 X58.954 Y179.378 E.07437
G1 X57.348 Y178.145 E.07309
G1 X56.073 Y176.483 E.07565
G1 X55.289 Y174.578 E.07437
G1 X55.025 Y172.571 E.07309
G1 X55.298 Y170.494 E.07565
G1 X56.091 Y168.592 E.07437
G1 X57.323 Y166.986 E.07309
G1 X58.985 Y165.711 E.07565
G1 X60.856 Y164.936 E.07309
G1 X62.059 Y164.773 E.04386
G1 X62.169 Y164.807 E.00413
G1 X62.214 Y164.909 E.00404
G1 X62.214 Y165.897 E.03567
G1 X61.757 Y165.897 F18000
G1 F3000
G1 X61.757 Y172.481 E.23772
G1 X61.794 Y172.758 E.01012
G1 X61.837 Y172.9 E.00534
G1 X61.929 Y173.097 E.00786
G1 X62.076 Y173.304 E.00915
G1 X62.374 Y173.552 E.01401
G1 X62.522 Y173.631 E.00607
G1 X62.725 Y173.699 E.00773
G1 X63.019 Y173.743 E.01072
G1 X70.032 Y173.743 E.25322
G1 X70.136 Y173.79 E.00413
G1 X70.168 Y173.898 E.00406
G1 X70.081 Y174.509 E.02227
G1 X69.365 Y176.236 E.06749
G1 X68.168 Y177.804 E.07126
G1 X66.63 Y178.985 E.06999
G1 X64.804 Y179.736 E.0713
G1 X62.915 Y179.98 E.06875
G1 X60.994 Y179.727 E.06998
G1 X59.171 Y178.968 E.07129
G1 X57.663 Y177.805 E.06875
G1 X56.484 Y176.267 E.06998
G1 X55.732 Y174.442 E.07129
G1 X55.488 Y172.553 E.06875
G1 X55.741 Y170.632 E.06998
G1 X56.501 Y168.809 E.07129
G1 X57.663 Y167.301 E.06875
G1 X59.202 Y166.121 E.07001
G1 X60.959 Y165.388 E.06877
G1 X61.602 Y165.296 E.02343
G1 X61.711 Y165.329 E.00413
G1 X61.757 Y165.432 E.00406
G1 X61.757 Y165.857 E.01533
G1 X61.3 Y165.959 F18000
G1 F3000
G1 X61.3 Y172.473 E.23518
G1 X61.339 Y172.81 E.01225
G1 X61.398 Y173.027 E.00814
G1 X61.512 Y173.283 E.0101
G1 X61.698 Y173.562 E.01211
G1 X61.789 Y173.66 E.00481
G1 X62.169 Y173.96 E.0175
G1 X62.383 Y174.066 E.00863
G1 X62.667 Y174.152 E.01069
G1 X63.028 Y174.2 E.01315
G1 X69.505 Y174.2 E.23386
G1 X69.609 Y174.247 E.00413
G1 X69.641 Y174.356 E.00409
G1 X68.955 Y176.02 E.06497
G1 X67.827 Y177.49 E.06691
G1 X66.383 Y178.592 E.06559
G1 X64.667 Y179.293 E.06691
G1 X62.898 Y179.517 E.06439
G1 X61.132 Y179.284 E.06433
G1 X59.388 Y178.558 E.06819
G1 X57.979 Y177.465 E.06439
G1 X56.894 Y176.052 E.06433
G1 X56.175 Y174.305 E.06819
G1 X55.951 Y172.536 E.06439
G1 X56.184 Y170.769 E.06433
G1 X56.91 Y169.026 E.06819
G1 X58.003 Y167.617 E.06439
G1 X59.418 Y166.531 E.06441
G1 X61.111 Y165.832 E.06612
G1 X61.225 Y165.837 E.00413
G1 X61.279 Y165.925 E.00373
G1 X60.768 Y166.52 F18000
G1 F3000
G1 X60.843 Y166.642 E.00518
G1 X60.843 Y172.465 E.21025
G1 X60.884 Y172.853 E.01407
G1 X60.984 Y173.221 E.01378
G1 X61.137 Y173.545 E.01291
G1 X61.368 Y173.877 E.01462
G1 X61.511 Y174.022 E.00735
G1 X61.977 Y174.375 E.02112
G1 X62.259 Y174.506 E.01123
G1 X62.523 Y174.586 E.00995
G1 X63.037 Y174.657 E.01874
G1 X68.818 Y174.657 E.20871
G1 X68.922 Y174.705 E.00413
G1 X68.944 Y174.846 E.00518
G1 X68.544 Y175.804 E.03748
G1 X67.487 Y177.174 E.06251
G1 X66.137 Y178.199 E.06118
G1 X64.567 Y178.84 E.06123
G1 X62.917 Y179.054 E.06008
G1 X61.269 Y178.842 E.05997
G1 X59.606 Y178.148 E.06507
G1 X58.32 Y177.151 E.05877
G1 X57.305 Y175.836 E.05998
G1 X56.628 Y174.204 E.06377
G1 X56.414 Y172.555 E.06006
G1 X56.627 Y170.907 E.05997
G1 X57.302 Y169.275 E.06377
G1 X58.342 Y167.933 E.06132
G1 X59.634 Y166.941 E.0588
G1 X60.654 Y166.515 E.03989
G1 X60.728 Y166.518 E.00269
G1 X60.31 Y167.206 F18000
G1 F3000
G1 X60.386 Y167.328 E.0052
G1 X60.386 Y172.459 E.18523
G1 X60.429 Y172.892 E.01573
G1 X60.541 Y173.332 E.01637
G1 X60.72 Y173.732 E.01584
G1 X60.987 Y174.129 E.01728
G1 X61.243 Y174.393 E.01328
G1 X61.691 Y174.731 E.02025
G1 X62.135 Y174.946 E.01783
G1 X62.47 Y175.04 E.01255
G1 X63.046 Y175.114 E.02097
G1 X68.131 Y175.114 E.18362
G1 X68.235 Y175.162 E.00413
G1 X68.258 Y175.304 E.0052
G1 X68.135 Y175.587 E.01114
G1 X67.173 Y176.833 E.05683
G1 X65.892 Y177.805 E.05808
G1 X64.466 Y178.388 E.05561
G1 X62.934 Y178.591 E.05578
G1 X61.372 Y178.389 E.05689
G1 X59.823 Y177.739 E.06063
G1 X58.635 Y176.812 E.05442
G1 X57.697 Y175.588 E.05568
G1 X57.071 Y174.067 E.05937
G1 X56.878 Y172.537 E.0557
G1 X57.079 Y171.009 E.05565
G1 X57.694 Y169.524 E.05804
G1 X58.657 Y168.273 E.05697
G1 X59.851 Y167.351 E.0545
M73 P3 R23
M73 P3 R23
G1 X60.196 Y167.202 E.01356
G1 X60.27 Y167.204 E.00269
G1 X59.82 Y168.013 F18000
G1 F3000
G1 X59.912 Y168.081 E.00413
G1 X59.929 Y168.147 E.00248
G1 X59.929 Y172.451 E.15539
G1 X59.988 Y173.013 E.0204
G1 X60.128 Y173.527 E.01923
G1 X60.347 Y173.995 E.01864
G1 X60.601 Y174.375 E.0165
G1 X60.91 Y174.706 E.01635
G1 X61.406 Y175.089 E.02262
G1 X61.927 Y175.353 E.02112
G1 X62.422 Y175.495 E.01857
G1 X63.054 Y175.571 E.023
G1 X67.29 Y175.571 E.15296
G1 X67.394 Y175.619 E.00413
G1 X67.426 Y175.729 E.00413
G1 X67.399 Y175.792 E.00248
G1 X66.859 Y176.491 E.03188
G1 X65.678 Y177.394 E.05371
G1 X64.33 Y177.945 E.05256
G1 X62.916 Y178.128 E.05149
G1 X61.51 Y177.946 E.05118
G1 X60.042 Y177.33 E.05748
G1 X58.952 Y176.473 E.05006
G1 X58.107 Y175.372 E.05009
G1 X57.515 Y173.932 E.05625
G1 X57.341 Y172.556 E.05007
G1 X57.522 Y171.146 E.05132
G1 X58.086 Y169.771 E.05366
G1 X58.972 Y168.613 E.05264
G1 X59.708 Y168.039 E.03371
G1 X59.781 Y168.022 E.00269
G1 X59.395 Y169.006 F18000
G1 F3000
G1 X59.433 Y169.021 E.00148
G1 X59.472 Y169.117 E.00371
G1 X59.472 Y172.444 E.12016
G1 X59.533 Y173.052 E.02203
G1 X59.684 Y173.637 E.02181
G1 X59.973 Y174.259 E.02476
G1 X60.216 Y174.621 E.01575
G1 X60.569 Y175.01 E.01897
G1 X61.21 Y175.502 E.02917
G1 X61.812 Y175.795 E.02418
G1 X62.377 Y175.95 E.02116
G1 X62.991 Y176.024 E.02234
G1 X66.307 Y176.028 E.11972
G1 X66.411 Y176.076 E.00413
G1 X66.443 Y176.186 E.00413
G1 X66.39 Y176.274 E.0037
G1 X65.431 Y177.001 E.04344
G1 X64.229 Y177.493 E.04691
G1 X62.898 Y177.664 E.04844
G1 X61.613 Y177.493 E.04682
G1 X60.293 Y176.939 E.05168
G1 X59.269 Y176.136 E.04701
G1 X58.5 Y175.126 E.04583
G1 X57.967 Y173.831 E.05055
G1 X57.804 Y172.539 E.04701
G1 X57.975 Y171.247 E.04704
G1 X58.479 Y170.017 E.04799
