; HEADER_BLOCK_START
; generated by Creality_Print V6.0.1.1375 on 2025-01-12 at 10:06:22
; total layer number: 40
; filament_density: 1.24,1.08
; filament_diameter: 1.75,1.75
; max_z_height: 8.00
; HEADER_BLOCK_END

; THUMBNAIL_BLOCK_START

;
; THUMBNAIL_BLOCK_END

; THUMBNAIL_BLOCK_START

;
; THUMBNAIL_BLOCK_END

; external perimeters extrusion width = 0.42mm
; perimeters extrusion width = 0.45mm
; infill extrusion width = 0.45mm
; solid infill extrusion width = 0.42mm
; top infill extrusion width = 0.42mm
; support material extrusion width = 0.42mm
; first layer extrusion width = 0.50mm

; EXECUTABLE_BLOCK_START
EXCLUDE_OBJECT_DEFINE NAME=tappo_superiore.stl_id_0_copy_0 CENTER=110,110 POLYGON=[[63,47.5],[157,47.5],[157,172.5],[63,172.5],[63,47.5]]
M73 P0 R34
;TYPE:Custom
M220 S100 ;Reset Feedrate 
M221 S100 ;Reset Flowrate 
 
M140 S100 ;Set final bed temp  
G28 ;Home 
 
G92 E0 ;Reset Extruder 
G1 Z2.0 F3000 ;Move Z Axis up 
M104 S260 ;Set final nozzle temp  
G1 X-2.0 Y20 Z0.28 F5000.0 ;Move to start position 
M190 S100 ;Wait for bed temp to stabilize  
M109 S260 ;Wait for nozzle temp to stabilize  
G1 X-2.0 Y145.0 Z0.28 F1500.0 E15 ;Draw the first line 
G1 X-1.7 Y145.0 Z0.28 F5000.0 ;Move to side a little 
G1 X-1.7 Y20 Z0.28 F1500.0 E30 ;Draw the second line 
G92 E0 ;Reset Extruder 
G1 E-1.0000 F1800 ;Retract a bit 
G1 Z2.0 F3000 ;Move Z Axis up 
G1 E0.0000 F1800
G90
G21
M83 ; use relative distances for extrusion
; MANUAL_TOOL_CHANGE T1
M104 S260 ; set nozzle temperature
; Filament gcode
G1 E-.8 F1800
M106 S0
;LAYER_CHANGE
;Z:0.2
;HEIGHT:0.2
;BEFORE_LAYER_CHANGE
;0.2
G92 E0

;_SET_FAN_SPEED_CHANGING_LAYER
SET_VELOCITY_LIMIT ACCEL=500 ACCEL_TO_DECEL=125
SET_VELOCITY_LIMIT SQUARE_CORNER_VELOCITY=9
; printing object tappo superiore.stl id:0 copy 0
EXCLUDE_OBJECT_START NAME=tappo_superiore.stl_id_0_copy_0
G1 Z.4 F18000
G1 X59.671 Y45.524
G1 Z.2
G1 E.8 F1800
;TYPE:Brim
;WIDTH:0.5
G1 F3000
G1 X60.272 Y44.74 E.03566
G1 X61.055 Y44.139 E.03566
G1 X61.968 Y43.761 E.03566
G1 X62.947 Y43.632 E.03566
G1 X63.926 Y43.761 E.03566
G1 X64.838 Y44.139 E.03566
G1 X65.622 Y44.74 E.03566
G1 X66.223 Y45.524 E.03566
G1 X66.601 Y46.436 E.03566
G1 X66.698 Y47.171 E.02678
G1 X63 Y47.171 E.13352
G1 X62.884 Y47.196 E.00429
G1 X62.747 Y47.305 E.00632
G1 X62.7 Y47.389 E.0035
G1 X62.671 Y47.5 E.00413
G1 X62.671 Y51.162 E.13223
G1 X61.968 Y51.07 E.02563
G1 X61.055 Y50.692 E.03566
G1 X60.272 Y50.09 E.03566
G1 X59.671 Y49.307 E.03566
G1 X59.293 Y48.394 E.03566
G1 X59.164 Y47.415 E.03566
G1 X59.293 Y46.436 E.03566
G1 X59.655 Y45.561 E.03421
G1 X60.081 Y45.74 F18000
G1 F3000
G1 X60.587 Y45.08 E.03001
G1 X61.302 Y44.531 E.03257
G1 X62.105 Y44.204 E.03129
G1 X62.929 Y44.095 E.03001
G1 X63.789 Y44.204 E.03129
G1 X64.591 Y44.531 E.03129
G1 X65.307 Y45.08 E.03257
G1 X65.831 Y45.771 E.03129
G1 X66.143 Y46.525 E.02946
G1 X66.139 Y46.639 E.00413
G1 X66.016 Y46.714 E.00519
G1 X63.011 Y46.714 E.10853
G1 X62.803 Y46.746 E.00758
G1 X62.586 Y46.848 E.00865
G1 X62.473 Y46.939 E.00525
G1 X62.304 Y47.16 E.01005
G1 X62.257 Y47.279 E.0046
G1 X62.214 Y47.512 E.00857
G1 X62.214 Y50.472 E.10685
G1 X62.167 Y50.576 E.00413
G1 X62.025 Y50.598 E.00519
G1 X61.271 Y50.281 E.02951
G1 X60.612 Y49.775 E.03001
G1 X60.063 Y49.06 E.03257
G1 X59.736 Y48.257 E.03129
G1 X59.627 Y47.433 E.03001
G1 X59.745 Y46.539 E.03257
G1 X60.065 Y45.777 E.02985
G1 X60.472 Y45.988 F18000
G1 F3000
G1 X60.902 Y45.421 E.02568
G1 X61.517 Y44.943 E.02815
G1 X62.241 Y44.647 E.02821
G1 X62.948 Y44.559 E.02573
G1 X63.654 Y44.648 E.0257
G1 X64.345 Y44.924 E.02687
G1 X64.965 Y45.394 E.02811
G1 X65.42 Y45.986 E.02695
G1 X65.459 Y46.068 E.00326
G1 X65.455 Y46.182 E.00413
G1 X65.333 Y46.257 E.00518
G1 X62.931 Y46.264 E.08673
G1 X62.6 Y46.337 E.01222
G1 X62.403 Y46.429 E.00786
G1 X62.196 Y46.575 E.00914
G1 X61.944 Y46.879 E.01425
G1 X61.878 Y46.997 E.00489
G1 X61.806 Y47.207 E.00801
G1 X61.767 Y47.418 E.00776
G1 X61.757 Y49.784 E.08542
G1 X61.709 Y49.888 E.00413
G1 X61.599 Y49.919 E.00413
G1 X61.539 Y49.894 E.00236
G1 X60.954 Y49.462 E.02623
G1 X60.456 Y48.813 E.02954
G1 X60.188 Y48.156 E.02564
G1 X60.09 Y47.451 E.02568
G1 X60.197 Y46.642 E.02945
G1 X60.457 Y46.025 E.0242
G1 X60.865 Y46.234 F18000
G1 F3000
G1 X61.244 Y45.734 E.02266
G1 X61.766 Y45.335 E.02371
G1 X62.375 Y45.091 E.02371
G1 X62.965 Y45.021 E.02142
G1 X63.555 Y45.1 E.0215
G1 X64.101 Y45.319 E.02123
G1 X64.422 Y45.557 E.01445
G1 X64.477 Y45.657 E.00413
G1 X64.435 Y45.764 E.00413
G1 X64.34 Y45.803 E.00372
G1 X62.942 Y45.807 E.05048
G1 X62.512 Y45.888 E.01579
G1 X62.216 Y46.013 E.01161
G1 X61.938 Y46.198 E.01205
G1 X61.84 Y46.29 E.00486
G1 X61.543 Y46.662 E.01719
G1 X61.442 Y46.858 E.00794
G1 X61.376 Y47.05 E.00734
G1 X61.319 Y47.326 E.01018
G1 X61.304 Y48.765 E.05197
G1 X61.256 Y48.869 E.00413
G1 X61.145 Y48.899 E.00413
G1 X61.059 Y48.847 E.00365
G1 X60.849 Y48.566 E.01265
G1 X60.63 Y48.019 E.02128
G1 X60.554 Y47.468 E.02008
G1 X60.64 Y46.781 E.02499
G1 X60.85 Y46.271 E.01993
G1 E-.56 F1800
;WIPE_START
G1 F3000
G1 X61.244 Y45.734 E-.15992
G1 X61.509 Y45.531 E-.08008
;WIPE_END
G1 Z.6 F18000
G1 X153.338 Y47.171 Z.6
G1 Z.2
G1 E.8 F1800
G1 F3000
G1 X153.43 Y46.468 E.02563
G1 X153.808 Y45.555 E.03566
G1 X154.41 Y44.772 E.03566
G1 X155.193 Y44.171 E.03566
G1 X156.106 Y43.793 E.03566
G1 X157.085 Y43.664 E.03566
G1 X158.064 Y43.793 E.03566
G1 X158.976 Y44.171 E.03566
G1 X159.76 Y44.772 E.03566
G1 X160.361 Y45.555 E.03566
G1 X160.739 Y46.468 E.03566
G1 X160.868 Y47.447 E.03566
G1 X160.739 Y48.426 E.03566
G1 X160.361 Y49.338 E.03566
G1 X159.76 Y50.122 E.03566
G1 X158.976 Y50.723 E.03566
G1 X158.064 Y51.101 E.03566
G1 X157.329 Y51.198 E.02678
G1 X157.329 Y47.5 E.13352
G1 X157.304 Y47.384 E.00429
G1 X157.195 Y47.247 E.00632
G1 X157.111 Y47.2 E.0035
G1 X157 Y47.171 E.00413
G1 X153.378 Y47.171 E.13078
G1 X153.924 Y46.667 F18000
G1 F3000
G1 X153.902 Y46.525 E.00519
G1 X154.219 Y45.771 E.02951
G1 X154.725 Y45.112 E.03001
G1 X155.44 Y44.563 E.03257
G1 X156.243 Y44.236 E.03129
G1 X157.067 Y44.127 E.03001
G1 X157.927 Y44.236 E.03129
G1 X158.729 Y44.563 E.03129
G1 X159.445 Y45.112 E.03257
G1 X159.969 Y45.802 E.03129
G1 X160.296 Y46.605 E.03129
G1 X160.405 Y47.429 E.03001
G1 X160.296 Y48.289 E.03129
G1 X159.951 Y49.122 E.03257
G1 X159.42 Y49.807 E.03129
G1 X158.76 Y50.313 E.03001
G1 X157.975 Y50.643 E.03075
G1 X157.861 Y50.639 E.00413
G1 X157.786 Y50.516 E.00519
G1 X157.786 Y47.511 E.10853
G1 X157.754 Y47.303 E.00758
G1 X157.652 Y47.086 E.00865
G1 X157.561 Y46.973 E.00525
G1 X157.34 Y46.804 E.01005
G1 X157.221 Y46.757 E.0046
G1 X156.988 Y46.714 E.00857
G1 X154.028 Y46.714 E.10685
G1 X153.961 Y46.683 E.00269
G1 X154.612 Y46.209 F18000
G1 F3000
G1 X154.581 Y46.099 E.00413
G1 X154.606 Y46.039 E.00236
G1 X155.038 Y45.454 E.02623
G1 X155.687 Y44.956 E.02954
G1 X156.344 Y44.688 E.02564
G1 X157.051 Y44.59 E.02573
G1 X157.792 Y44.679 E.02696
G1 X158.514 Y44.974 E.02817
G1 X159.129 Y45.452 E.02811
G1 X159.575 Y46.048 E.02687
G1 X159.844 Y46.707 E.0257
G1 X159.941 Y47.413 E.02573
G1 X159.843 Y48.188 E.02821
G1 X159.541 Y48.905 E.02811
G1 X159.081 Y49.491 E.0269
G1 X158.543 Y49.904 E.02448
G1 X158.433 Y49.955 E.00437
G1 X158.319 Y49.951 E.00413
G1 X158.243 Y49.829 E.0052
G1 X158.236 Y47.431 E.08659
G1 X158.207 Y47.243 E.00685
G1 X158.163 Y47.1 E.0054
G1 X158.071 Y46.903 E.00786
G1 X157.925 Y46.696 E.00914
G1 X157.621 Y46.444 E.01425
G1 X157.503 Y46.378 E.00489
G1 X157.293 Y46.306 E.00801
G1 X157.082 Y46.267 E.00776
G1 X154.716 Y46.257 E.08542
G1 X154.648 Y46.226 E.00269
G1 X155.632 Y45.756 F18000
G1 F3000
G1 X155.601 Y45.646 E.00413
G1 X155.653 Y45.559 E.00368
G1 X155.902 Y45.367 E.01134
G1 X156.481 Y45.13 E.02259
G1 X157.072 Y45.053 E.02153
G1 X157.658 Y45.124 E.0213
G1 X158.266 Y45.366 E.02364
G1 X158.785 Y45.764 E.02362
G1 X159.163 Y46.26 E.02253
G1 X159.392 Y46.81 E.0215
G1 X159.478 Y47.397 E.02142
G1 X159.4 Y48.049 E.02371
G1 X159.132 Y48.686 E.02493
G1 X158.942 Y48.928 E.01111
G1 X158.84 Y48.98 E.00413
G1 X158.734 Y48.937 E.00413
G1 X158.697 Y48.843 E.00363
G1 X158.693 Y47.438 E.05074
G1 X158.659 Y47.18 E.0094
G1 X158.602 Y46.973 E.00774
G1 X158.488 Y46.717 E.01012
G1 X158.302 Y46.438 E.0121
G1 X158.21 Y46.34 E.00486
G1 X157.838 Y46.043 E.01719
G1 X157.644 Y45.943 E.00789
G1 X157.369 Y45.855 E.01043
G1 X157.074 Y45.81 E.01078
G1 X155.736 Y45.804 E.0483
G1 X155.668 Y45.773 E.00269
G1 E-.56 F1800
;WIPE_START
G1 F3000
G1 X155.601 Y45.646 E-.03449
G1 X155.653 Y45.559 E-.02445
G1 X155.902 Y45.367 E-.07539
G1 X156.309 Y45.2 E-.10567
;WIPE_END
G1 Z.6 F18000
G1 X157.329 Y168.838 Z.6
G1 Z.2
G1 E.8 F1800
G1 F3000
G1 X158.032 Y168.93 E.02563
G1 X158.945 Y169.308 E.03566
G1 X159.728 Y169.91 E.03566
G1 X160.329 Y170.693 E.03566
G1 X160.707 Y171.606 E.03566
G1 X160.836 Y172.585 E.03566
G1 X160.707 Y173.564 E.03566
G1 X160.329 Y174.476 E.03566
G1 X159.728 Y175.26 E.03566
G1 X158.945 Y175.861 E.03566
G1 X158.032 Y176.239 E.03566
G1 X157.053 Y176.368 E.03566
G1 X156.074 Y176.239 E.03566
G1 X155.162 Y175.861 E.03566
G1 X154.378 Y175.26 E.03566
G1 X153.777 Y174.476 E.03566
G1 X153.399 Y173.564 E.03566
G1 X153.302 Y172.829 E.02678
G1 X157 Y172.829 E.13352
G1 X157.116 Y172.804 E.00429
G1 X157.253 Y172.695 E.00632
G1 X157.3 Y172.611 E.0035
G1 X157.329 Y172.5 E.00413
G1 X157.329 Y168.878 E.13078
G1 X157.833 Y169.424 F18000
G1 F3000
G1 X157.975 Y169.402 E.00519
G1 X158.698 Y169.701 E.02823
G1 X159.413 Y170.25 E.03257
G1 X159.937 Y170.94 E.03129
G1 X160.255 Y171.708 E.03001
G1 X160.373 Y172.603 E.03257
G1 X160.264 Y173.427 E.03001
G1 X159.937 Y174.229 E.03129
G1 X159.388 Y174.945 E.03257
G1 X158.698 Y175.469 E.03129
G1 X157.93 Y175.787 E.03001
G1 X157.035 Y175.905 E.03257
G1 X156.211 Y175.796 E.03001
G1 X155.409 Y175.469 E.03129
G1 X154.718 Y174.945 E.03129
G1 X154.187 Y174.26 E.03129
G1 X153.857 Y173.475 E.03075
G1 X153.861 Y173.361 E.00413
G1 X153.984 Y173.286 E.00519
G1 X156.989 Y173.286 E.10853
G1 X157.197 Y173.254 E.00758
M73 P1 R34
M73 P1 R34
G1 X157.414 Y173.152 E.00865
G1 X157.527 Y173.061 E.00525
G1 X157.656 Y172.909 E.0072
G1 X157.743 Y172.718 E.00759
G1 X157.786 Y172.488 E.00845
G1 X157.786 Y169.528 E.10685
G1 X157.817 Y169.461 E.00269
G1 X158.291 Y170.108 F18000
G1 F3000
G1 X158.45 Y170.093 E.00578
G1 X159.097 Y170.59 E.02945
G1 X159.527 Y171.156 E.02564
G1 X159.803 Y171.811 E.02568
G1 X159.91 Y172.621 E.02949
G1 X159.812 Y173.325 E.02568
G1 X159.544 Y173.983 E.02564
G1 X159.048 Y174.629 E.02942
G1 X158.482 Y175.058 E.02564
G1 X157.827 Y175.335 E.02568
G1 X157.017 Y175.441 E.02949
G1 X156.313 Y175.344 E.02568
G1 X155.654 Y175.075 E.0257
G1 X155.031 Y174.603 E.02821
G1 X154.596 Y174.042 E.02564
G1 X154.545 Y173.933 E.00433
G1 X154.549 Y173.819 E.00413
G1 X154.671 Y173.743 E.0052
G1 X157.069 Y173.736 E.08659
G1 X157.4 Y173.663 E.01222
G1 X157.601 Y173.569 E.00801
G1 X157.702 Y173.506 E.00432
G1 X157.88 Y173.351 E.00851
G1 X158.076 Y173.088 E.01183
G1 X158.196 Y172.787 E.01172
G1 X158.233 Y172.582 E.00752
G1 X158.243 Y170.212 E.08558
G1 X158.274 Y170.144 E.00269
G1 X158.744 Y171.12 F18000
G1 F3000
G1 X158.854 Y171.089 E.00413
G1 X158.942 Y171.141 E.00371
G1 X159.135 Y171.402 E.0117
G1 X159.351 Y171.915 E.02009
G1 X159.446 Y172.637 E.02632
G1 X159.37 Y173.188 E.02009
G1 X159.151 Y173.736 E.02129
G1 X158.708 Y174.313 E.02627
G1 X158.236 Y174.666 E.02129
G1 X157.723 Y174.882 E.02009
G1 X157.037 Y174.978 E.02501
G1 X156.416 Y174.892 E.02262
G1 X155.899 Y174.681 E.02018
G1 X155.577 Y174.443 E.01444
G1 X155.523 Y174.342 E.00413
G1 X155.565 Y174.236 E.00413
G1 X155.659 Y174.197 E.00367
G1 X157.179 Y174.179 E.0549
G1 X157.605 Y174.072 E.01587
G1 X157.846 Y173.955 E.00965
G1 X158.007 Y173.846 E.00701
G1 X158.254 Y173.615 E.01223
G1 X158.503 Y173.25 E.01594
G1 X158.647 Y172.859 E.01503
G1 X158.69 Y172.574 E.01044
G1 X158.696 Y171.224 E.04874
G1 X158.727 Y171.156 E.00269
G1 E-.56 F1800
;WIPE_START
G1 F3000
G1 X158.854 Y171.089 E-.03449
G1 X158.942 Y171.141 E-.02463
G1 X159.135 Y171.402 E-.0778
G1 X159.301 Y171.798 E-.10308
;WIPE_END
G1 Z.6 F18000
G1 X140.35 Y162.114 Z.6
G1 Z.2
G1 E.8 F1800
G1 F3000
G1 X136.103 Y162.114 E.15333
G1 X136.103 Y162.049 E.00233
G1 X137.821 Y162.049 E.06203
G1 X137.932 Y162.021 E.00413
G1 X138.017 Y161.974 E.0035
G1 X138.126 Y161.837 E.00632
G1 X138.15 Y161.721 E.00429
G1 X138.15 Y158.068 E.1319
G1 X138.303 Y158.068 E.00555
G1 X138.303 Y161.721 E.1319
G1 X138.332 Y161.831 E.00413
G1 X138.379 Y161.916 E.0035
G1 X138.516 Y162.025 E.00632
G1 X138.569 Y162.04 E.002
G1 X140.35 Y162.049 E.06431
G1 X140.35 Y162.074 E.00089
G1 E-.56 F1800
;WIPE_START
G1 F3000
G1 X139.35 Y162.083 E-.24
;WIPE_END
G1 Z.6 F18000
G1 X134.888 Y162.074 Z.6
G1 Z.2
G1 E.8 F1800
G1 F3000
G1 X134.888 Y162.386 E.01126
G1 X134.774 Y162.386 E.00412
G1 X134.774 Y160.411 E.07131
G1 X134.745 Y160.3 E.00413
G1 X134.698 Y160.215 E.0035
G1 X134.587 Y160.116 E.00538
G1 X134.536 Y160.107 E.0019
G1 X134.643 Y160.025 E.00488
G1 X134.71 Y159.945 E.00378
G1 X134.774 Y159.763 E.00693
G1 X134.774 Y156.671 E.11165
G1 X134.888 Y156.671 E.00412
G1 X134.888 Y162.034 E.19363
G1 X133.576 Y160.604 F18000
G1 F3000
G1 X133.347 Y160.685 E.00876
G1 X133.052 Y160.718 E.01071
G1 X132.8 Y160.696 E.00915
G1 X132.59 Y160.634 E.0079
G1 X132.532 Y160.599 E.00244
G1 X132.587 Y160.479 E.00475
G1 X132.636 Y160.513 E.00217
G1 X132.96 Y160.621 E.0123
G1 X133.254 Y160.644 E.01065
G1 X133.536 Y160.609 E.01026
G1 E-.56 F1800
;WIPE_START
G1 F3000
G1 X133.347 Y160.685 E-.04893
G1 X133.052 Y160.718 E-.07122
G1 X132.8 Y160.696 E-.0608
G1 X132.59 Y160.634 E-.05252
G1 X132.567 Y160.62 E-.00654
;WIPE_END
G1 Z.6 F18000
G1 X124.461 Y160.394 Z.6
G1 Z.2
G1 E.8 F1800
G1 F3000
G1 X124.339 Y160.469 E.00514
G1 X124.198 Y160.518 E.00542
G1 X124.167 Y160.443 E.00293
G1 X124.421 Y160.401 E.00933
G1 E-.56 F1800
;WIPE_START
G1 F3000
G1 X124.339 Y160.469 E-.04285
G1 X124.198 Y160.518 E-.06046
G1 X124.167 Y160.443 E-.03268
G1 X124.421 Y160.401 E-.10401
;WIPE_END
G1 Z.6 F18000
G1 X119.954 Y161.831 Z.6
G1 Z.2
G1 E.8 F1800
G1 F3000
G1 X119.954 Y162.114 E.01022
G1 X119.605 Y162.114 E.01261
G1 X119.739 Y161.906 E.00893
G1 X119.916 Y161.844 E.00678
G1 E-.56 F1800
;WIPE_START
G1 F3000
G1 X119.954 Y162.114 E-.06541
G1 X119.605 Y162.114 E-.0838
G1 X119.739 Y161.906 E-.05938
G1 X119.863 Y161.863 E-.03141
;WIPE_END
G1 Z.6 F18000
G1 X119.954 Y156.786 Z.6
G1 Z.2
G1 E.8 F1800
G1 F3000
G1 X119.8 Y156.731 E.00589
G1 X119.8 Y156.671 E.00216
G1 X119.954 Y156.671 E.00555
G1 X119.954 Y156.746 E.00271
G1 E-.56 F1800
;WIPE_START
G1 F3000
G1 X119.8 Y156.731 E-.08365
G1 X119.8 Y156.671 E-.03243
G1 X119.954 Y156.671 E-.08324
G1 X119.954 Y156.746 E-.04069
;WIPE_END
G1 Z.6 F18000
G1 X115.386 Y156.746 Z.6
G1 Z.2
G1 E.8 F1800
G1 F3000
G1 X115.386 Y158.098 E.04882
G1 X115.272 Y158.237 E.00649
G1 X115.272 Y156.671 E.05655
G1 X115.386 Y156.671 E.00412
G1 X115.386 Y156.706 E.00127
G1 E-.56 F1800
;WIPE_START
G1 F3000
G1 X115.386 Y157.706 E-.24
;WIPE_END
G1 Z.6 F18000
G1 X103.018 Y162.01 Z.6
G1 Z.2
G1 E.8 F1800
G1 F3000
G1 X103.018 Y162.154 E.00519
G1 X102.8 Y162.154 E.00787
G1 X102.8 Y162.01 E.00519
G1 X102.978 Y162.01 E.00642
G1 E-.56 F1800
;WIPE_START
G1 F3000
G1 X103.018 Y162.154 E-.05199
G1 X102.8 Y162.154 E-.07593
G1 X102.8 Y162.01 E-.05009
G1 X102.978 Y162.01 E-.06199
;WIPE_END
G1 Z.6 F18000
G1 X105.25 Y160.308 Z.6
G1 Z.2
G1 E.8 F1800
G1 F3000
G1 X105.079 Y160.079 E.01029
G1 X104.947 Y159.792 E.0114
G1 X104.863 Y159.433 E.01332
G1 X104.841 Y158.881 E.01995
G1 X105.082 Y158.881 E.00868
G1 X104.987 Y158.966 E.00461
G1 X104.947 Y159.054 E.0035
G1 X104.928 Y159.167 E.00414
G1 X104.953 Y159.47 E.01095
G1 X105.007 Y159.745 E.01013
G1 X105.101 Y160.003 E.00992
G1 X105.238 Y160.234 E.0097
G1 X105.436 Y160.443 E.01039
G1 X105.733 Y160.625 E.01259
G1 X105.462 Y160.492 E.01091
G1 X105.279 Y160.335 E.00872
G1 E-.56 F1800
;WIPE_START
G1 F3000
G1 X105.079 Y160.079 E-.07786
G1 X104.947 Y159.792 E-.0758
G1 X104.865 Y159.442 E-.08634
;WIPE_END
G1 Z.6 F18000
G1 X104.916 Y156.9 Z.6
G1 Z.2
G1 E.8 F1800
G1 F3000
G1 X104.916 Y156.849 E.00185
G1 X105.218 Y156.733 E.01167
G1 X105.743 Y156.596 E.01959
G1 X106.147 Y156.568 E.01464
G1 X106.615 Y156.603 E.01693
G1 X107.009 Y156.702 E.01467
