; HEADER_BLOCK_START
; generated by Creality_Print V6.0.2.1574 on 2025-01-25 at 16:11:34
; total layer number: 96
; filament_density: 1.04
; filament_diameter: 1.75
; max_z_height: 18.52
; HEADER_BLOCK_END

; MINX = 63.00
; MINY = 47.50
; MINZ = 0.00
; MAXX = 157.00
; MAXY = 172.50
; MAXZ = 18.40

; THUMBNAIL_BLOCK_START

;
; THUMBNAIL_BLOCK_END

; external perimeters extrusion width = 0.42mm
; perimeters extrusion width = 0.45mm
; infill extrusion width = 0.45mm
; solid infill extrusion width = 0.45mm
; top infill extrusion width = 0.42mm
; support material extrusion width = 0.38mm
; first layer extrusion width = 0.50mm

; EXECUTABLE_BLOCK_START
M73 P0 R99
M201 X500 Y500 Z100 E5000
M203 X500 Y500 Z10 E60
M204 P500 R1000 T500
M205 X12.00 Y12.00 Z0.40 E5.00 ; sets the jerk limits, mm/sec
;TYPE:Custom
G90 ; use absolute coordinates
M83 ; extruder relative mode
M104 S150 ; set temporary nozzle temp to prevent oozing during homing
M140 S110 ; set final bed temp
G4 S30 ; allow partial nozzle warmup
G28 ; home all axis and restore leveling
G1 Z50 F240
G1 X2.0 Y10 F3000
M104 S240 ; set final nozzle temp
M190 S110 ; wait for bed temp to stabilize
M109 S240 ; wait for nozzle temp to stabilize
G1 Z0.28 F240
G92 E0
G1 X2.0 Y140 E10 F1500 ; prime the nozzle
M73 P0 R98
M73 P0 R98
G1 X2.3 Y140 F5000
G92 E0
G1 X2.3 Y10 E10 F1200 ; prime the nozzle
G92 E0
G90
G21
M83 ; use relative distances for extrusion
; Filament gcode
G1 E-2 F2400
M106 S0
;LAYER_CHANGE
;Z:0.25
;HEIGHT:0.25
;BEFORE_LAYER_CHANGE
;0.25
G92 E0

;_SET_FAN_SPEED_CHANGING_LAYER
M204 S500
M205 X9 Y9
G1 Z.4 F5760
G1 X164.453 Y110.002
G1 Z.25
G1 E2 F2100
;TYPE:Skirt
;WIDTH:0.5
G1 F3000
G1 X164.456 Y172.5 E2.75449
G1 X164.334 Y173.81 E.05798
G1 X164.027 Y174.949 E.05201
G1 X163.667 Y175.794 E.04044
G1 X163.027 Y176.867 E.05507
G1 X161.991 Y178.03 E.06865
G1 X160.552 Y179.05 E.07775
G1 X158.823 Y179.722 E.08174
G1 X157.768 Y179.912 E.04723
G1 X157 Y179.956 E.03392
G1 X63 Y179.956 E4.14286
G1 X61.69 Y179.834 E.05798
G1 X60.551 Y179.527 E.05201
G1 X59.706 Y179.167 E.04044
G1 X58.633 Y178.527 E.05507
G1 X57.47 Y177.491 E.06865
G1 X56.45 Y176.052 E.07775
G1 X55.778 Y174.323 E.08174
G1 X55.588 Y173.268 E.04723
G1 X55.544 Y172.5 E.03392
G1 X55.544 Y47.5 E5.50913
G1 X55.666 Y46.19 E.05798
G1 X55.973 Y45.051 E.05201
G1 X56.333 Y44.206 E.04044
G1 X56.973 Y43.133 E.05507
G1 X58.009 Y41.97 E.06865
G1 X59.448 Y40.95 E.07775
G1 X61.177 Y40.278 E.08174
G1 X62.232 Y40.088 E.04723
G1 X63 Y40.044 E.03392
G1 X157.216 Y40.052 E4.1524
G1 X158.961 Y40.315 E.07775
G1 X160.294 Y40.833 E.06302
G1 X161.367 Y41.473 E.05507
G1 X162.23 Y42.197 E.04966
G1 X163.206 Y43.376 E.06746
G1 X163.771 Y44.4 E.05152
G1 X164.222 Y45.677 E.0597
G1 X164.45 Y47.312 E.07274
G1 X164.453 Y109.962 E2.76118
G1 X164.007 Y109.962 F5760
G1 F3000
G1 X164.01 Y172.5 E2.75625
G1 X163.898 Y173.711 E.05358
G1 X163.616 Y174.775 E.04853
G1 X163.257 Y175.619 E.04044
G1 X162.651 Y176.626 E.05177
G1 X161.707 Y177.686 E.0626
G1 X160.322 Y178.668 E.07481
G1 X158.732 Y179.285 E.07516
G1 X157.739 Y179.467 E.04448
G1 X157 Y179.51 E.03264
G1 X63 Y179.51 E4.14286
G1 X61.789 Y179.398 E.05358
G1 X60.725 Y179.116 E.04853
G1 X59.881 Y178.757 E.04044
G1 X58.874 Y178.151 E.05177
G1 X57.814 Y177.207 E.0626
G1 X56.832 Y175.822 E.07481
G1 X56.215 Y174.232 E.07516
G1 X56.033 Y173.239 E.04448
G1 X55.99 Y172.5 E.03264
G1 X55.99 Y47.5 E5.50913
G1 X56.102 Y46.289 E.05358
G1 X56.384 Y45.225 E.04853
G1 X56.743 Y44.381 E.04044
G1 X57.349 Y43.374 E.05177
G1 X58.293 Y42.314 E.0626
G1 X59.678 Y41.332 E.07481
G1 X61.268 Y40.715 E.07516
G1 X62.261 Y40.533 E.04448
G1 X63 Y40.49 E.03264
G1 X157.183 Y40.497 E4.15093
G1 X158.861 Y40.75 E.07481
G1 X160.119 Y41.243 E.05953
G1 X161.126 Y41.849 E.05177
G1 X161.933 Y42.529 E.04654
G1 X162.823 Y43.606 E.06159
G1 X163.354 Y44.56 E.04811
G1 X163.785 Y45.768 E.05651
G1 X164.005 Y47.341 E.06999
G1 X164.007 Y109.922 E2.75813
; printing object Struttura_intera.stl id:8171063952611762432 copy 0
G1 E-1.4 F2400
;WIPE_START
G1 F3000
G1 X164.007 Y110.922 E-.6
;WIPE_END
G1 X162.888 Y118.472 Z.65 F5760
G1 X155.15 Y170.65 Z.65
G1 Z.25
M73 P1 R98
M73 P1 R98
G1 E2 F2100
;TYPE:Support
G1 F1800
G1 X64.85 Y170.65 E3.97979
G1 X64.85 Y49.35 E5.34606
G1 X155.15 Y49.35 E3.97979
G1 X155.15 Y170.583 E5.34311
G1 E-1.4 F2400
;WIPE_START
G1 F1800
G1 X155.15 Y169.583 E-.6
;WIPE_END
G1 X150.643 Y163.423 Z.65 F5760
G1 X69.362 Y52.34 Z.65
G1 Z.25
G1 E2 F2100
G1 F1800
G1 X69.362 Y57.014 E.20601
G1 X75.036 Y57.014 E.25008
G1 X75.036 Y72.199 E.66926
G1 X69.362 Y72.199 E.25008
G1 X69.362 Y156.312 E3.70709
G1 X75.036 Y156.312 E.25008
G1 X75.036 Y167.66 E.50015
G1 X144.964 Y167.66 E3.0819
G1 X144.964 Y156.312 E.50015
G1 X150.638 Y156.312 E.25008
M73 P1 R97
M73 P1 R97
G1 X150.638 Y72.199 E3.70709
G1 X144.964 Y72.199 E.25008
G1 X144.964 Y57.014 E.66926
G1 X150.638 Y57.014 E.25008
G1 X150.638 Y52.34 E.20601
G1 X69.429 Y52.34 E3.57911
G1 X154.748 Y49.752 F5760
G1 F1800
G1 X154.748 Y170.248 E5.31065
G1 X65.252 Y170.248 E3.94438
G1 X65.252 Y49.752 E5.31065
G1 X154.748 Y49.752 E3.94438
G1 X154.252 Y50.248 F5760
G1 F1800
G1 X154.252 Y169.752 E5.26693
G1 X65.748 Y169.752 E3.90067
G1 X65.748 Y50.248 E5.26693
G1 X154.252 Y50.248 E3.90067
G1 X153.756 Y50.744 F5760
M73 P2 R97
M73 P2 R97
G1 F1800
G1 X153.756 Y169.256 E5.22322
G1 X146.357 Y169.256 E.3261
G1 X146.357 Y157.706 E.50908
G1 X152.031 Y157.706 E.25008
G1 X152.031 Y70.806 E3.82994
G1 X146.357 Y70.806 E.25008
G1 X146.357 Y58.408 E.54642
G1 X152.031 Y58.408 E.25008
G1 X152.031 Y50.744 E.33778
G1 X153.756 Y50.744 E.07603
G1 X153.26 Y51.24 F5760
G1 F1800
G1 X153.26 Y168.76 E5.1795
G1 X146.853 Y168.76 E.28239
G1 X146.853 Y158.201 E.46537
G1 X152.527 Y158.201 E.25008
G1 X152.527 Y70.31 E3.87365
G1 X146.853 Y70.31 E.25008
G1 X146.853 Y58.904 E.5027
G1 X152.527 Y58.904 E.25008
G1 X152.527 Y51.24 E.33778
G1 X153.26 Y51.24 E.03231
G1 X152.765 Y158.697 F5760
G1 F1800
G1 X152.765 Y168.265 E.42165
G1 X147.349 Y168.265 E.23867
G1 X147.349 Y158.697 E.42165
G1 X152.765 Y158.697 E.23867
G1 X152.269 Y159.193 F5760
G1 F1800
G1 X152.269 Y167.769 E.37794
G1 X147.845 Y167.769 E.19496
G1 X147.845 Y159.193 E.37794
G1 X152.269 Y159.193 E.19496
G1 X151.773 Y159.689 F5760
G1 F1800
G1 X151.773 Y167.273 E.33422
G1 X148.341 Y167.273 E.15124
G1 X148.341 Y159.689 E.33422
G1 X151.773 Y159.689 E.15124
G1 X151.277 Y160.185 F5760
G1 F1800
G1 X151.277 Y166.777 E.2905
G1 X148.837 Y166.777 E.10753
G1 X148.837 Y160.185 E.2905
G1 X151.277 Y160.185 E.10753
G1 X150.781 Y160.681 F5760
G1 F1800
G1 X150.781 Y166.281 E.24679
G1 X149.333 Y166.281 E.06381
G1 X149.333 Y160.681 E.24679
G1 X150.781 Y160.681 E.06381
M73 P2 R96
M73 P2 R96
G1 X150.285 Y161.177 F5760
G1 F1800
G1 X150.285 Y165.785 E.20307
G1 X149.829 Y165.785 E.0201
G1 X149.829 Y161.177 E.20307
G1 X150.285 Y161.177 E.0201
G1 X152.765 Y69.814 F5760
G1 F1800
G1 X147.349 Y69.814 E.23867
G1 X147.349 Y59.4 E.45899
G1 X152.765 Y59.4 E.23867
G1 X152.765 Y69.814 E.45899
G1 X152.269 Y69.318 F5760
G1 F1800
G1 X147.845 Y69.318 E.19496
G1 X147.845 Y59.896 E.41527
G1 X152.269 Y59.896 E.19496
G1 X152.269 Y69.318 E.41527
G1 X151.773 Y68.822 F5760
G1 F1800
G1 X148.341 Y68.822 E.15124
G1 X148.341 Y60.392 E.37156
G1 X151.773 Y60.392 E.15124
G1 X151.773 Y68.822 E.37156
G1 X151.277 Y68.326 F5760
G1 F1800
G1 X148.837 Y68.326 E.10753
G1 X148.837 Y60.887 E.32784
G1 X151.277 Y60.887 E.10753
G1 X151.277 Y68.326 E.32784
G1 X150.781 Y67.83 F5760
G1 F1800
G1 X149.333 Y67.83 E.06381
G1 X149.333 Y61.383 E.28412
G1 X150.781 Y61.383 E.06381
G1 X150.781 Y67.83 E.28412
G1 X150.285 Y67.334 F5760
G1 F1800
G1 X149.829 Y67.334 E.0201
G1 X149.829 Y61.879 E.24041
G1 X150.285 Y61.879 E.0201
G1 X150.285 Y67.334 E.24041
G1 X151.535 Y71.302 F5760
G1 F1800
G1 X151.535 Y157.21 E3.78622
G1 X145.861 Y157.21 E.25008
G1 X145.861 Y168.558 E.50015
G1 X74.139 Y168.558 E3.16103
G1 X74.139 Y157.21 E.50015
G1 X68.465 Y157.21 E.25008
G1 X68.465 Y71.302 E3.78622
G1 X74.139 Y71.302 E.25008
G1 X74.139 Y57.912 E.59013
G1 X68.465 Y57.912 E.25008
G1 X68.465 Y51.442 E.28514
G1 X151.535 Y51.442 E3.66118
G1 X151.535 Y57.912 E.28514
G1 X145.861 Y57.912 E.25008
G1 X145.861 Y71.302 E.59013
G1 X151.535 Y71.302 E.25008
G1 X151.039 Y71.798 F5760
G1 F1800
G1 X151.039 Y156.714 E3.7425
G1 X145.365 Y156.714 E.25008
G1 X145.365 Y168.062 E.50015
G1 X74.635 Y168.062 E3.11731
G1 X74.635 Y156.714 E.50015
G1 X68.961 Y156.714 E.25008
G1 X68.961 Y71.798 E3.7425
G1 X74.635 Y71.798 E.25008
G1 X74.635 Y57.416 E.63385
G1 X68.961 Y57.416 E.25008
G1 X68.961 Y51.938 E.24142
G1 X151.039 Y51.938 E3.61747
G1 X151.039 Y57.416 E.24142
G1 X145.365 Y57.416 E.25008
G1 X145.365 Y71.798 E.63385
M73 P3 R96
M73 P3 R96
G1 X151.039 Y71.798 E.25008
G1 E-1.4 F2400
;WIPE_START
G1 F1800
G1 X150.039 Y71.798 E-.6
;WIPE_END
G1 X142.408 Y71.699 Z.65 F5760
G1 X73.643 Y70.806 Z.65
G1 Z.25
G1 E2 F2100
G1 F1800
G1 X67.969 Y70.806 E.25008
G1 X67.969 Y157.706 E3.82994
G1 X73.643 Y157.706 E.25008
G1 X73.643 Y169.256 E.50908
G1 X66.244 Y169.256 E.32611
G1 X66.244 Y50.744 E5.22322
G1 X67.969 Y50.744 E.07603
G1 X67.969 Y58.408 E.33778
G1 X73.643 Y58.408 E.25008
G1 X73.643 Y70.806 E.54642
G1 X73.147 Y70.31 F5760
G1 F1800
G1 X67.473 Y70.31 E.25008
G1 X67.473 Y158.201 E3.87365
G1 X73.147 Y158.201 E.25008
G1 X73.147 Y168.76 E.46537
G1 X66.74 Y168.76 E.28239
G1 X66.74 Y51.24 E5.1795
G1 X67.473 Y51.24 E.03231
G1 X67.473 Y58.904 E.33778
G1 X73.147 Y58.904 E.25008
G1 X73.147 Y70.31 E.5027
G1 E-1.4 F2400
;WIPE_START
G1 F1800
G1 X73.147 Y69.31 E-.6
;WIPE_END
G1 X73.105 Y76.942 Z.65 F5760
G1 X72.651 Y158.697 Z.65
G1 Z.25
G1 E2 F2100
G1 F1800
G1 X72.651 Y168.265 E.42165
G1 X67.235 Y168.265 E.23867
G1 X67.235 Y158.697 E.42165
G1 X72.651 Y158.697 E.23867
G1 X72.155 Y159.193 F5760
G1 F1800
G1 X72.155 Y167.769 E.37794
G1 X67.731 Y167.769 E.19496
G1 X67.731 Y159.193 E.37794
G1 X72.155 Y159.193 E.19496
G1 X71.659 Y159.689 F5760
G1 F1800
G1 X71.659 Y167.273 E.33422
G1 X68.227 Y167.273 E.15124
G1 X68.227 Y159.689 E.33422
G1 X71.659 Y159.689 E.15124
M73 P3 R95
M73 P3 R95
G1 X71.163 Y160.185 F5760
G1 F1800
G1 X71.163 Y166.777 E.2905
G1 X68.723 Y166.777 E.10753
G1 X68.723 Y160.185 E.2905
G1 X71.163 Y160.185 E.10753
G1 X70.667 Y160.681 F5760
G1 F1800
G1 X70.667 Y166.281 E.24679
G1 X69.219 Y166.281 E.06381
G1 X69.219 Y160.681 E.24679
G1 X70.667 Y160.681 E.06381
G1 X70.171 Y161.177 F5760
G1 F1800
G1 X70.171 Y165.785 E.20307
G1 X69.715 Y165.785 E.0201
G1 X69.715 Y161.177 E.20307
G1 X70.171 Y161.177 E.0201
G1 E-1.4 F2400
;WIPE_START
G1 F1800
G1 X69.715 Y161.177 E-.27361
G1 X69.715 Y161.721 E-.32639
;WIPE_END
G1 X69.959 Y154.093 Z.65 F5760
G1 X72.651 Y69.814 Z.65
G1 Z.25
G1 E2 F2100
G1 F1800
G1 X67.235 Y69.814 E.23867
G1 X67.235 Y59.4 E.45899
G1 X72.651 Y59.4 E.23867
G1 X72.651 Y69.814 E.45899
G1 X72.155 Y69.318 F5760
G1 F1800
G1 X67.731 Y69.318 E.19496
G1 X67.731 Y59.896 E.41527
G1 X72.155 Y59.896 E.19496
G1 X72.155 Y69.318 E.41527
G1 X71.659 Y68.822 F5760
G1 F1800
G1 X68.227 Y68.822 E.15124
G1 X68.227 Y60.392 E.37156
G1 X71.659 Y60.392 E.15124
G1 X71.659 Y68.822 E.37156
G1 X71.163 Y68.326 F5760
G1 F1800
G1 X68.723 Y68.326 E.10753
G1 X68.723 Y60.887 E.32784
G1 X71.163 Y60.887 E.10753
G1 X71.163 Y68.326 E.32784
G1 X70.667 Y67.83 F5760
G1 F1800
G1 X69.219 Y67.83 E.06381
G1 X69.219 Y61.383 E.28412
G1 X70.667 Y61.383 E.06381
G1 X70.667 Y67.83 E.28412
G1 X70.171 Y67.334 F5760
G1 F1800
G1 X69.715 Y67.334 E.0201
G1 X69.715 Y61.879 E.24041
G1 X70.171 Y61.879 E.0201
G1 X70.171 Y67.334 E.24041
G1 E-1.4 F2400
;WIPE_START
G1 F1800
G1 X70.171 Y66.334 E-.6
;WIPE_END
G1 X67.972 Y59.025 Z.65 F5760
G1 X64.4 Y47.15 Z.65
G1 Z.25
G1 E2 F2100
G1 F1800
G1 X62.65 Y47.15 E.07712
G1 X62.65 Y172.85 E5.53998
G1 X64.4 Y172.85 E.07712
G1 X64.4 Y174.334 E.06541
G1 X59.851 Y174.334 E.20047
G1 X59.851 Y45.666 E5.6708
G1 X64.4 Y45.666 E.20047
G1 X64.4 Y47.083 E.06246
G1 E-1.4 F2400
;WIPE_START
G1 F1800
G1 X64.4 Y46.083 E-.6
;WIPE_END
G1 X64.376 Y53.715 Z.65 F5760
G1 X63.998 Y173.252 Z.65
G1 Z.25
G1 E2 F2100
G1 F1800
G1 X63.998 Y173.932 E.03
G1 X60.253 Y173.932 E.16506
G1 X60.253 Y46.068 E5.63539
G1 X63.998 Y46.068 E.16506
G1 X63.998 Y46.748 E.03
G1 X62.248 Y46.748 E.07712
G1 X62.248 Y173.252 E5.57539
G1 X63.998 Y173.252 E.07712
G1 X61.752 Y173.437 F5760
G1 F1800
G1 X60.749 Y173.437 E.04423
G1 X60.749 Y46.563 E5.59168
G1 X61.752 Y46.563 E.04423
G1 X61.752 Y173.437 E5.59168
G1 E-1.4 F2400
M73 P4 R95
;WIPE_START
M73 P4 R95
G1 F1800
G1 X61.752 Y172.437 E-.6
;WIPE_END
G1 X69.383 Y172.584 Z.65 F5760
G1 X160.149 Y174.334 Z.65
G1 Z.25
G1 E2 F2100
G1 F1800
G1 X155.6 Y174.334 E.20048
G1 X155.6 Y172.85 E.06541
G1 X157.35 Y172.85 E.07712
G1 X157.35 Y47.15 E5.53998
G1 X155.6 Y47.15 E.07712
G1 X155.6 Y45.666 E.06541
G1 X160.149 Y45.666 E.20048
G1 X160.149 Y174.267 E5.66785
G1 E-1.4 F2400
;WIPE_START
G1 F1800
G1 X160.149 Y173.267 E-.6
;WIPE_END
G1 X159.899 Y165.639 Z.65 F5760
G1 X156.002 Y46.748 Z.65
G1 Z.25
G1 E2 F2100
G1 F1800
G1 X156.002 Y46.068 E.03
G1 X159.747 Y46.068 E.16507
G1 X159.747 Y173.932 E5.63539
G1 X156.002 Y173.932 E.16507
G1 X156.002 Y173.252 E.03
G1 X157.752 Y173.252 E.07712
G1 X157.752 Y46.748 E5.57539
G1 X156.002 Y46.748 E.07712
M73 P4 R94
M73 P4 R94
G1 X158.248 Y46.563 F5760
G1 F1800
G1 X159.251 Y46.563 E.04423
G1 X159.251 Y173.437 E5.59168
G1 X158.248 Y173.437 E.04423
G1 X158.248 Y46.563 E5.59168
G1 E-1.4 F2400
;WIPE_START
G1 F1800
G1 X158.248 Y47.563 E-.6
;WIPE_END
G1 X160.381 Y44.799 Z.65 F5760
G1 Z.25
G1 E2 F2100
;TYPE:Brim
G1 F1800
G1 X160.544 Y44.996 E.0113
G1 X160.87 Y45.537 E.02783
G1 X161.175 Y46.33 E.03741
G1 X161.304 Y46.95 E.02793
G1 X161.34 Y47.507 E.02461
G1 X161.34 Y172.492 E5.50844
G1 X161.292 Y173.132 E.02832
G1 X161.152 Y173.748 E.02781
G1 X160.808 Y174.556 E.03873
G1 X160.415 Y175.168 E.03207
G1 X159.992 Y175.64 E.0279
G1 X159.504 Y176.044 E.02795
G1 X158.963 Y176.37 E.02783
G1 X158.17 Y176.675 E.03741
G1 X157.55 Y176.804 E.02793
G1 X156.993 Y176.84 E.02461
G1 X63.008 Y176.84 E4.14217
G1 X62.368 Y176.792 E.02832
G1 X61.752 Y176.652 E.02781
G1 X60.944 Y176.308 E.03873
G1 X60.332 Y175.915 E.03207
G1 X59.86 Y175.492 E.0279
G1 X59.456 Y175.004 E.02795
G1 X59.13 Y174.463 E.02783
G1 X58.825 Y173.67 E.03741
G1 X58.696 Y173.05 E.02793
G1 X58.66 Y172.493 E.02461
G1 X58.66 Y47.508 E5.50844
G1 X58.708 Y46.868 E.02832
G1 X58.848 Y46.252 E.02781
G1 X59.192 Y45.444 E.03873
G1 X59.585 Y44.832 E.03207
G1 X60.008 Y44.36 E.0279
G1 X60.496 Y43.956 E.02795
G1 X61.037 Y43.63 E.02783
G1 X61.83 Y43.325 E.03741
G1 X62.45 Y43.196 E.02793
G1 X63.007 Y43.16 E.02461
G1 X156.992 Y43.16 E4.14217
G1 X157.632 Y43.208 E.02832
G1 X158.248 Y43.348 E.02781
G1 X159.056 Y43.692 E.03873
G1 X159.668 Y44.085 E.03207
G1 X160.14 Y44.508 E.0279
G1 X160.355 Y44.768 E.01488
G1 E-1.4 F2400
;WIPE_START
G1 F1800
G1 X160.544 Y44.996 E-.17788
G1 X160.87 Y45.537 E-.37886
G1 X160.896 Y45.605 E-.04326
;WIPE_END
G1 X160.518 Y53.228 Z.65 F5760
G1 X154.573 Y173.27 Z.65
G1 Z.25
G1 E2 F2100
G1 F1800
G1 X154.676 Y173.317 E.00498
G1 X154.707 Y173.403 E.00405
G1 X154.707 Y174.413 E.04452
G1 X154.746 Y174.61 E.00882
G1 X154.802 Y174.743 E.00637
G1 X154.913 Y174.909 E.00882
G1 X155.025 Y175.021 E.00699
G1 X155.191 Y175.133 E.00882
G1 X155.325 Y175.188 E.00637
G1 X155.521 Y175.227 E.00882
G1 X159.42 Y175.227 E.17184
G1 X159.522 Y175.275 E.00498
G1 X159.552 Y175.384 E.00498
G1 X159.505 Y175.464 E.00409
G1 X159.253 Y175.673 E.01443
G1 X158.755 Y175.971 E.02558
G1 X158.033 Y176.247 E.03406
G1 X157.499 Y176.359 E.02406
G1 X156.974 Y176.394 E.02319
G1 X63.03 Y176.394 E4.14038
G1 X62.444 Y176.35 E.02588
G1 X61.88 Y176.221 E.02554
G1 X61.144 Y175.906 E.03528
G1 X60.595 Y175.551 E.0288
G1 X60.494 Y175.461 E.00598
G1 X60.449 Y175.357 E.00498
G1 X60.5 Y175.256 E.00498
G1 X60.583 Y175.227 E.00388
G1 X64.479 Y175.227 E.17172
G1 X64.675 Y175.188 E.00882
G1 X64.809 Y175.133 E.00637
G1 X64.975 Y175.021 E.00882
G1 X65.087 Y174.909 E.00699
G1 X65.198 Y174.743 E.00882
G1 X65.254 Y174.61 E.00637
G1 X65.293 Y174.413 E.00882
G1 X65.293 Y173.403 E.04452
G1 X65.34 Y173.301 E.00498
G1 X65.427 Y173.27 E.00405
G1 X154.533 Y173.27 E3.92721
G1 X154.23 Y173.764 F5760
G1 F1800
G1 X154.261 Y173.85 E.00405
