; HEADER_BLOCK_START
; generated by Creality_Print V6.0.2.1574 on 2025-02-23 at 11:49:21
; total layer number: 40
; filament_density: 1.04
; filament_diameter: 1.75
; max_z_height: 8.00
; HEADER_BLOCK_END

; MINX = 63.00
; MINY = 47.50
; MINZ = 0.00
; MAXX = 157.00
; MAXY = 172.50
; MAXZ = 8.00

; THUMBNAIL_BLOCK_START

;
; THUMBNAIL_BLOCK_END

; external perimeters extrusion width = 0.42mm
; perimeters extrusion width = 0.45mm
; infill extrusion width = 0.45mm
; solid infill extrusion width = 0.45mm
; top infill extrusion width = 0.42mm
; first layer extrusion width = 0.50mm

; EXECUTABLE_BLOCK_START
M73 P0 R101
M201 X500 Y500 Z100 E5000
M203 X500 Y500 Z10 E60
M204 P500 R1000 T500
M205 X12.00 Y12.00 Z0.40 E5.00 ; sets the jerk limits, mm/sec
;TYPE:Custom
G90 ; use absolute coordinates
M83 ; extruder relative mode
M104 S150 ; set temporary nozzle temp to prevent oozing during homing
M140 S110 ; set final bed temp
G4 S30 ; allow partial nozzle warmup
G28 ; home all axis and restore leveling
G1 Z50 F240
G1 X2.0 Y10 F3000
M104 S240 ; set final nozzle temp
M190 S110 ; wait for bed temp to stabilize
M109 S240 ; wait for nozzle temp to stabilize
G1 Z0.28 F240
G92 E0
G1 X2.0 Y140 E10 F1500 ; prime the nozzle
M73 P0 R100
M73 P0 R100
G1 X2.3 Y140 F5000
G92 E0
G1 X2.3 Y10 E10 F1200 ; prime the nozzle
G92 E0
G90
G21
M83 ; use relative distances for extrusion
; Filament gcode
G1 E-2 F2400
M106 S0
;LAYER_CHANGE
;Z:0.2
;HEIGHT:0.2
;BEFORE_LAYER_CHANGE
;0.2
G92 E0

;_SET_FAN_SPEED_CHANGING_LAYER
M204 S500
M205 X9 Y9
G1 Z.4 F7200
G1 X164.582 Y110.002
G1 Z.2
G1 E2 F2100
;TYPE:Skirt
;WIDTH:0.5
G1 F3000
G1 X164.585 Y172.5 E2.25656
G1 X164.464 Y173.815 E.04769
G1 X164.156 Y174.969 E.04313
G1 X163.783 Y175.849 E.03451
G1 X163.136 Y176.936 E.04565
G1 X162.101 Y178.105 E.05638
G1 X160.655 Y179.14 E.06421
G1 X158.86 Y179.845 E.06966
G1 X157.794 Y180.039 E.03909
G1 X157 Y180.085 E.02873
G1 X63 Y180.085 E3.39396
G1 X61.685 Y179.964 E.04769
G1 X60.531 Y179.656 E.04313
G1 X59.651 Y179.283 E.03451
G1 X58.564 Y178.636 E.04565
G1 X57.395 Y177.601 E.05638
G1 X56.36 Y176.155 E.06421
G1 X55.655 Y174.36 E.06966
G1 X55.461 Y173.294 E.03909
G1 X55.415 Y172.5 E.02873
G1 X55.415 Y47.5 E4.51325
G1 X55.536 Y46.185 E.04769
G1 X55.844 Y45.031 E.04313
G1 X56.217 Y44.151 E.03451
G1 X56.864 Y43.064 E.04565
G1 X57.899 Y41.895 E.05638
G1 X59.345 Y40.86 E.06421
G1 X61.14 Y40.155 E.06966
G1 X62.206 Y39.961 E.03909
G1 X63 Y39.915 E.02873
G1 X157.215 Y39.923 E3.40174
G1 X158.974 Y40.185 E.06421
G1 X160.349 Y40.717 E.05324
G1 X161.436 Y41.364 E.04565
G1 X162.305 Y42.09 E.04089
G1 X163.289 Y43.268 E.05541
G1 X163.868 Y44.305 E.0429
G1 X164.345 Y45.64 E.0512
G1 X164.579 Y47.308 E.06078
G1 X164.582 Y109.962 E2.26219
G1 X164.125 Y109.962 F7200
G1 F3000
G1 X164.128 Y172.5 E2.25801
G1 X164.018 Y173.715 E.04403
G1 X163.735 Y174.791 E.04019
G1 X163.362 Y175.671 E.03451
G1 X162.751 Y176.689 E.04286
G1 X161.808 Y177.754 E.05136
G1 X160.417 Y178.75 E.06177
G1 X158.766 Y179.398 E.06405
G1 X157.764 Y179.583 E.03678
G1 X157 Y179.628 E.02764
G1 X63 Y179.628 E3.39396
G1 X61.785 Y179.518 E.04403
G1 X60.709 Y179.235 E.04019
G1 X59.829 Y178.862 E.03451
G1 X58.811 Y178.251 E.04286
G1 X57.746 Y177.308 E.05136
G1 X56.75 Y175.917 E.06177
G1 X56.102 Y174.266 E.06405
G1 X55.917 Y173.264 E.03678
G1 X55.872 Y172.5 E.02764
G1 X55.872 Y47.5 E4.51325
G1 X55.982 Y46.285 E.04403
G1 X56.265 Y45.209 E.04019
G1 X56.638 Y44.329 E.03451
G1 X57.249 Y43.311 E.04286
G1 X58.192 Y42.246 E.05136
G1 X59.583 Y41.25 E.06177
G1 X61.234 Y40.602 E.06405
G1 X62.236 Y40.417 E.03678
G1 X63 Y40.372 E.02764
G1 X157.182 Y40.379 E3.40052
G1 X158.874 Y40.631 E.06177
G1 X160.171 Y41.138 E.0503
G1 X161.189 Y41.749 E.04286
G1 X162.001 Y42.431 E.0383
G1 X162.898 Y43.506 E.05055
G1 X163.442 Y44.471 E.03999
G1 X163.898 Y45.734 E.04849
G1 X164.123 Y47.338 E.05847
G1 X164.125 Y109.922 E2.25966
; printing object tappo superiore.stl id:8171063952611762432 copy 0
G1 E-1.4 F2400
;WIPE_START
G1 F3000
G1 X164.125 Y110.922 E-.6
;WIPE_END
G1 X161.442 Y109.922 Z.6 F7200
G1 Z.2
G1 E2 F2100
;TYPE:Brim
G1 F1800
G1 X161.442 Y172.492 E2.25915
G1 X161.394 Y173.14 E.02348
M73 P1 R100
M73 P1 R100
G1 X161.254 Y173.763 E.02304
G1 X160.897 Y174.606 E.03307
G1 X160.5 Y175.224 E.02653
G1 X160.074 Y175.703 E.02313
G1 X159.581 Y176.114 E.02317
G1 X159.036 Y176.447 E.02305
G1 X158.198 Y176.773 E.03248
G1 X157.571 Y176.904 E.02313
G1 X156.992 Y176.942 E.02093
G1 X63.008 Y176.942 E3.39339
G1 X62.36 Y176.894 E.02348
G1 X61.737 Y176.754 E.02304
G1 X60.894 Y176.397 E.03307
G1 X60.276 Y176 E.02653
G1 X59.797 Y175.574 E.02313
G1 X59.386 Y175.081 E.02317
G1 X59.053 Y174.536 E.02305
G1 X58.727 Y173.698 E.03248
G1 X58.596 Y173.071 E.02313
G1 X58.558 Y172.492 E.02093
G1 X58.558 Y47.508 E4.51267
G1 X58.606 Y46.86 E.02348
G1 X58.746 Y46.237 E.02304
G1 X59.103 Y45.394 E.03307
G1 X59.5 Y44.776 E.02653
G1 X59.926 Y44.297 E.02313
G1 X60.419 Y43.886 E.02317
G1 X60.964 Y43.553 E.02305
G1 X61.802 Y43.227 E.03248
G1 X62.429 Y43.096 E.02313
G1 X63.008 Y43.058 E.02093
G1 X156.992 Y43.058 E3.39339
G1 X157.64 Y43.106 E.02348
G1 X158.263 Y43.246 E.02304
G1 X159.106 Y43.603 E.03307
G1 X159.724 Y44 E.02653
G1 X160.203 Y44.426 E.02313
G1 X160.614 Y44.919 E.02317
G1 X160.947 Y45.464 E.02305
G1 X161.273 Y46.302 E.03248
G1 X161.404 Y46.929 E.02313
G1 X161.442 Y47.508 E.02093
G1 X161.442 Y109.882 E2.25208
G1 X160.985 Y109.882 F7200
M73 P1 R99
M73 P1 R99
G1 F1800
G1 X160.985 Y172.47 E2.2598
G1 X160.942 Y173.062 E.02146
G1 X160.812 Y173.633 E.02114
G1 X160.495 Y174.381 E.02932
G1 X160.14 Y174.938 E.02385
G1 X159.747 Y175.38 E.02136
G1 X159.306 Y175.747 E.02072
G1 X158.822 Y176.04 E.02043
G1 X158.056 Y176.336 E.02962
G1 X157.518 Y176.448 E.01985
G1 X156.973 Y176.485 E.01974
G1 X63.03 Y176.485 E3.39188
G1 X62.438 Y176.442 E.02146
G1 X61.867 Y176.312 E.02114
G1 X61.119 Y175.995 E.02932
G1 X60.562 Y175.64 E.02385
G1 X60.12 Y175.247 E.02136
G1 X59.753 Y174.806 E.02072
G1 X59.46 Y174.322 E.02043
G1 X59.164 Y173.556 E.02962
G1 X59.052 Y173.018 E.01985
G1 X59.015 Y172.473 E.01973
G1 X59.015 Y47.53 E4.51117
G1 X59.058 Y46.938 E.02146
G1 X59.188 Y46.367 E.02114
G1 X59.505 Y45.619 E.02932
G1 X59.86 Y45.062 E.02385
G1 X60.253 Y44.62 E.02136
G1 X60.694 Y44.253 E.02072
G1 X61.178 Y43.96 E.02043
G1 X61.944 Y43.664 E.02962
G1 X62.482 Y43.552 E.01985
G1 X63.027 Y43.515 E.01973
G1 X156.98 Y43.515 E3.39225
G1 X157.562 Y43.558 E.02109
G1 X158.11 Y43.68 E.02026
G1 X158.881 Y44.005 E.0302
G1 X159.438 Y44.36 E.02385
G1 X159.866 Y44.738 E.02063
G1 X160.247 Y45.194 E.02145
G1 X160.54 Y45.678 E.02043
G1 X160.836 Y46.444 E.02962
G1 X160.948 Y46.982 E.01985
G1 X160.985 Y47.527 E.01974
G1 X160.985 Y109.842 E2.24993
G1 X160.528 Y109.842 F7200
G1 F1800
G1 X160.528 Y172.448 E2.26045
G1 X160.489 Y172.984 E.01942
G1 X160.371 Y173.504 E.01924
G1 X160.094 Y174.157 E.02562
G1 X159.781 Y174.653 E.02117
G1 X159.421 Y175.057 E.01955
G1 X159.031 Y175.379 E.01823
G1 X158.608 Y175.632 E.01781
G1 X157.915 Y175.898 E.02679
G1 X157.446 Y175.995 E.0173
G1 X156.953 Y176.028 E.01786
G1 X63.052 Y176.028 E3.39037
G1 X62.516 Y175.989 E.01942
G1 X61.996 Y175.871 E.01924
G1 X61.343 Y175.594 E.02562
G1 X60.847 Y175.281 E.02117
G1 X60.443 Y174.921 E.01955
G1 X60.121 Y174.531 E.01823
G1 X59.868 Y174.108 E.01781
G1 X59.602 Y173.415 E.02679
G1 X59.505 Y172.946 E.0173
G1 X59.472 Y172.453 E.01786
G1 X59.472 Y47.552 E4.50966
G1 X59.511 Y47.016 E.01942
G1 X59.629 Y46.496 E.01924
G1 X59.906 Y45.843 E.02562
G1 X60.219 Y45.347 E.02117
G1 X60.579 Y44.943 E.01955
G1 X60.969 Y44.621 E.01823
G1 X61.392 Y44.368 E.01781
G1 X62.085 Y44.102 E.02679
G1 X62.554 Y44.005 E.0173
G1 X63.047 Y43.972 E.01786
G1 X156.958 Y43.972 E3.39073
G1 X157.485 Y44.011 E.0191
G1 X157.982 Y44.122 E.01837
G1 X158.678 Y44.417 E.02729
G1 X159.153 Y44.72 E.02035
G1 X159.53 Y45.051 E.01809
G1 X159.867 Y45.452 E.01894
G1 X160.132 Y45.892 E.01853
G1 X160.398 Y46.585 E.02679
G1 X160.495 Y47.054 E.0173
G1 X160.528 Y47.547 E.01786
G1 X160.528 Y109.802 E2.24776
G1 X160.071 Y109.802 F7200
G1 F1800
G1 X160.071 Y172.426 E2.26112
G1 X160.033 Y172.927 E.01812
G1 X159.929 Y173.374 E.01658
G1 X159.692 Y173.934 E.02197
G1 X159.42 Y174.367 E.01847
G1 X159.094 Y174.734 E.0177
G1 X158.758 Y175.01 E.0157
G1 X158.396 Y175.224 E.01519
G1 X157.776 Y175.46 E.02398
G1 X157.375 Y175.542 E.01476
G1 X156.933 Y175.571 E.01601
G1 X63.074 Y175.571 E3.38887
G1 X62.573 Y175.533 E.01812
G1 X62.126 Y175.429 E.01658
G1 X61.566 Y175.192 E.02197
G1 X61.133 Y174.92 E.01847
G1 X60.766 Y174.594 E.0177
G1 X60.49 Y174.258 E.0157
G1 X60.276 Y173.896 E.01519
G1 X60.04 Y173.276 E.02398
G1 X59.958 Y172.875 E.01476
G1 X59.929 Y172.433 E.01601
G1 X59.929 Y47.574 E4.50815
G1 X59.967 Y47.073 E.01812
G1 X60.071 Y46.626 E.01658
G1 X60.308 Y46.066 E.02197
G1 X60.58 Y45.633 E.01847
G1 X60.906 Y45.266 E.0177
G1 X61.242 Y44.99 E.0157
G1 X61.604 Y44.776 E.01519
G1 X62.224 Y44.54 E.02398
G1 X62.625 Y44.458 E.01476
G1 X63.067 Y44.429 E.01601
G1 X156.936 Y44.429 E3.38922
G1 X157.408 Y44.464 E.0171
G1 X157.853 Y44.564 E.01647
G1 X158.474 Y44.829 E.02439
G1 X158.869 Y45.081 E.0169
G1 X159.194 Y45.364 E.01557
G1 X159.487 Y45.711 E.01639
G1 X159.724 Y46.105 E.0166
G1 X159.96 Y46.724 E.02394
G1 X160.042 Y47.125 E.01476
G1 X160.071 Y47.567 E.01601
G1 X160.071 Y109.762 E2.24559
G1 X159.614 Y109.762 F7200
G1 F1800
G1 X159.614 Y172.404 E2.26176
G1 X159.581 Y172.847 E.01604
M73 P2 R99
M73 P2 R99
G1 X159.488 Y173.243 E.01468
G1 X159.29 Y173.712 E.01841
G1 X159.059 Y174.083 E.01575
G1 X158.768 Y174.41 E.01582
G1 X158.486 Y174.639 E.01312
G1 X158.186 Y174.815 E.01256
G1 X157.637 Y175.022 E.02119
G1 X157.305 Y175.088 E.01222
G1 X156.913 Y175.114 E.01419
G1 X63.096 Y175.114 E3.38735
G1 X62.653 Y175.081 E.01604
G1 X62.257 Y174.988 E.01468
G1 X61.788 Y174.79 E.01841
G1 X61.417 Y174.559 E.01575
G1 X61.09 Y174.268 E.01582
G1 X60.861 Y173.986 E.01312
G1 X60.685 Y173.686 E.01256
G1 X60.478 Y173.137 E.02119
G1 X60.412 Y172.805 E.01222
G1 X60.386 Y172.413 E.01419
G1 X60.386 Y47.596 E4.50663
G1 X60.419 Y47.153 E.01603
G1 X60.512 Y46.757 E.01468
G1 X60.71 Y46.288 E.01841
G1 X60.941 Y45.917 E.01575
G1 X61.232 Y45.59 E.01582
G1 X61.514 Y45.361 E.01312
G1 X61.814 Y45.185 E.01256
G1 X62.363 Y44.978 E.02119
G1 X62.695 Y44.912 E.01222
G1 X63.087 Y44.886 E.01419
G1 X156.914 Y44.886 E3.38773
G1 X157.331 Y44.916 E.01507
M73 P2 R98
M73 P2 R98
G1 X157.723 Y45.006 E.01454
G1 X158.27 Y45.241 E.02149
G1 X158.586 Y45.442 E.01353
G1 X158.86 Y45.679 E.01307
G1 X159.12 Y45.987 E.01458
G1 X159.316 Y46.317 E.01384
G1 X159.522 Y46.863 E.02108
G1 X159.588 Y47.195 E.01222
G1 X159.614 Y47.587 E.01419
G1 X159.614 Y109.722 E2.24343
G1 X159.157 Y109.722 F7200
G1 F1800
G1 X159.157 Y172.459 E2.2652
G1 X159.103 Y172.896 E.01589
G1 X158.935 Y173.398 E.01912
G1 X158.875 Y173.516 E.00478
G1 X158.639 Y173.861 E.0151
G1 X158.26 Y174.226 E.01899
G1 X158.109 Y174.323 E.00647
G1 X157.63 Y174.547 E.01911
G1 X157.355 Y174.615 E.01024
G1 X156.965 Y174.657 E.01413
G1 X63.041 Y174.657 E3.39124
G1 X62.604 Y174.603 E.01589
G1 X62.102 Y174.435 E.01912
G1 X61.984 Y174.375 E.00478
G1 X61.639 Y174.139 E.0151
G1 X61.274 Y173.76 E.01899
G1 X61.177 Y173.609 E.00647
G1 X60.953 Y173.13 E.01911
G1 X60.885 Y172.855 E.01024
G1 X60.843 Y172.465 E.01413
G1 X60.843 Y47.541 E4.51053
G1 X60.899 Y47.092 E.01635
G1 X61.003 Y46.733 E.01348
G1 X61.198 Y46.362 E.01514
G1 X61.48 Y46.008 E.01633
G1 X61.842 Y45.708 E.01696
G1 X62.185 Y45.523 E.01408
G1 X62.553 Y45.404 E.01396
G1 X63.036 Y45.343 E.0176
G1 X156.959 Y45.343 E3.39119
G1 X157.396 Y45.397 E.01589
G1 X157.898 Y45.565 E.01912
G1 X158.016 Y45.625 E.00478
G1 X158.361 Y45.861 E.0151
G1 X158.726 Y46.24 E.01899
G1 X158.823 Y46.391 E.00647
G1 X159.047 Y46.87 E.01911
G1 X159.115 Y47.145 E.01024
G1 X159.157 Y47.535 E.01413
G1 X159.157 Y109.682 E2.24388
G1 X158.7 Y109.682 F7200
G1 F1800
G1 X158.7 Y172.468 E2.26695
G1 X158.648 Y172.846 E.01378
G1 X158.503 Y173.251 E.01552
G1 X158.254 Y173.615 E.01593
G1 X158.01 Y173.843 E.01207
G1 X157.912 Y173.91 E.00429
G1 X157.522 Y174.104 E.01572
G1 X157.31 Y174.161 E.00793
G1 X156.973 Y174.2 E.01225
G1 X63.032 Y174.2 E3.39181
G1 X62.654 Y174.148 E.01378
G1 X62.249 Y174.003 E.01552
G1 X61.885 Y173.754 E.01593
G1 X61.657 Y173.51 E.01207
G1 X61.59 Y173.412 E.00429
G1 X61.396 Y173.022 E.01572
G1 X61.339 Y172.81 E.00793
G1 X61.3 Y172.473 E.01225
G1 X61.3 Y47.532 E4.5111
G1 X61.353 Y47.144 E.01413
G1 X61.443 Y46.858 E.01082
G1 X61.6 Y46.578 E.01162
G1 X61.839 Y46.291 E.01348
G1 X62.131 Y46.062 E.01339
G1 X62.398 Y45.927 E.01083
G1 X62.692 Y45.839 E.01107
G1 X63.027 Y45.8 E.01218
G1 X156.968 Y45.8 E3.39181
G1 X157.346 Y45.852 E.01378
G1 X157.751 Y45.997 E.01552
G1 X158.115 Y46.246 E.01593
G1 X158.343 Y46.49 E.01207
G1 X158.41 Y46.588 E.00429
G1 X158.604 Y46.978 E.01572
G1 X158.661 Y47.19 E.00793
G1 X158.7 Y47.527 E.01225
G1 X158.7 Y109.642 E2.2427
G1 X158.243 Y109.642 F7200
G1 F1800
G1 X158.243 Y172.477 E2.26873
G1 X158.195 Y172.789 E.01138
G1 X158.076 Y173.088 E.01165
G1 X157.88 Y173.351 E.01183
G1 X157.706 Y173.503 E.00833
G1 X157.397 Y173.664 E.01259
G1 X157.258 Y173.706 E.00524
G1 X156.981 Y173.743 E.01012
G1 X63.023 Y173.743 E3.39244
G1 X62.711 Y173.695 E.01138
G1 X62.412 Y173.576 E.01165
G1 X62.149 Y173.38 E.01183
G1 X61.997 Y173.206 E.00833
G1 X61.836 Y172.897 E.01259
G1 X61.794 Y172.758 E.00524
G1 X61.757 Y172.481 E.01012
G1 X61.757 Y47.523 E4.51172
G1 X61.806 Y47.205 E.01162
G1 X61.878 Y46.997 E.00794
G1 X61.944 Y46.879 E.00489
G1 X62.196 Y46.575 E.01425
G1 X62.403 Y46.429 E.00914
G1 X62.6 Y46.337 E.00786
G1 X62.742 Y46.294 E.00534
G1 X63.019 Y46.257 E.01012
G1 X156.977 Y46.257 E3.39244
G1 X157.289 Y46.305 E.01138
G1 X157.588 Y46.424 E.01165
G1 X157.851 Y46.62 E.01183
G1 X158.003 Y46.794 E.00833
G1 X158.164 Y47.103 E.01259
G1 X158.206 Y47.242 E.00524
G1 X158.243 Y47.519 E.01012
G1 X158.243 Y109.602 E2.24154
G1 X157.786 Y109.602 F7200
G1 F1800
G1 X157.786 Y172.488 E2.27056
G1 X157.743 Y172.718 E.00845
M73 P3 R98
M73 P3 R98
G1 X157.656 Y172.909 E.00759
G1 X157.527 Y173.061 E.0072
G1 X157.414 Y173.152 E.00525
G1 X157.197 Y173.254 E.00865
G1 X156.989 Y173.286 E.00758
G1 X63.012 Y173.286 E3.39314
G1 X62.782 Y173.243 E.00845
G1 X62.591 Y173.156 E.00759
G1 X62.439 Y173.027 E.0072
G1 X62.348 Y172.914 E.00525
G1 X62.246 Y172.697 E.00865
G1 X62.214 Y172.489 E.00758
G1 X62.214 Y47.512 E4.51242
G1 X62.257 Y47.279 E.00857
G1 X62.304 Y47.16 E.0046
G1 X62.473 Y46.939 E.01005
G1 X62.586 Y46.848 E.00525
G1 X62.803 Y46.746 E.00865
G1 X63.011 Y46.714 E.00758
G1 X156.988 Y46.714 E3.39314
G1 X157.218 Y46.757 E.00845
M73 P3 R97
M73 P3 R97
G1 X157.409 Y46.844 E.00759
G1 X157.561 Y46.973 E.0072
G1 X157.652 Y47.086 E.00525
G1 X157.754 Y47.303 E.00865
G1 X157.786 Y47.511 E.00758
G1 X157.786 Y109.562 E2.24042
G1 X157.329 Y109.562 F7200
G1 F1800
G1 X157.329 Y172.5 E2.27245
G1 X157.3 Y172.611 E.00413
G1 X157.253 Y172.695 E.0035
G1 X157.116 Y172.804 E.00632
G1 X157 Y172.829 E.00429
G1 X63 Y172.829 E3.39396
G1 X62.889 Y172.8 E.00413
G1 X62.805 Y172.753 E.0035
G1 X62.696 Y172.616 E.00632
G1 X62.671 Y172.5 E.00429
G1 X62.671 Y47.5 E4.51325
G1 X62.7 Y47.389 E.00413
G1 X62.747 Y47.305 E.0035
G1 X62.884 Y47.196 E.00632
G1 X63 Y47.171 E.00429
G1 X157 Y47.171 E3.39396
G1 X157.111 Y47.2 E.00413
G1 X157.195 Y47.247 E.0035
G1 X157.304 Y47.384 E.00632
G1 X157.329 Y47.5 E.00429
G1 X157.329 Y109.522 E2.23936
G1 E-1.4 F2400
;WIPE_START
G1 F1800
G1 X157.329 Y110.522 E-.6
;WIPE_END
G1 X152.153 Y104.912 Z.6 F7200
G1 X113.302 Y62.802 Z.6
G1 Z.2
G1 E2 F2100
G1 F1800
G1 X112.594 Y63.383 E.03305
G1 X111.787 Y63.814 E.03305
G1 X110.911 Y64.08 E.03305
G1 X110 Y64.17 E.03305
G1 X109.089 Y64.08 E.03305
G1 X108.213 Y63.814 E.03305
G1 X107.406 Y63.383 E.03305
G1 X106.698 Y62.802 E.03305
G1 X106.117 Y62.094 E.03305
G1 X105.686 Y61.287 E.03305
G1 X105.42 Y60.411 E.03305
G1 X105.33 Y59.5 E.03305
G1 X105.42 Y58.589 E.03305
G1 X105.686 Y57.713 E.03305
G1 X106.117 Y56.906 E.03305
G1 X106.698 Y56.198 E.03305
G1 X107.406 Y55.617 E.03305
G1 X108.213 Y55.186 E.03305
G1 X109.089 Y54.92 E.03305
G1 X110 Y54.83 E.03305
G1 X110.911 Y54.92 E.03305
G1 X111.787 Y55.186 E.03305
