; HEADER_BLOCK_START
; generated by Creality_Print V6.0.0.1078 on 2025-01-02 at 20:59:46
; total layer number: 40
; filament_density: 1.24
; filament_diameter: 1.75
; max_z_height: 8.00
; HEADER_BLOCK_END

; THUMBNAIL_BLOCK_START

;
; THUMBNAIL_BLOCK_END

; THUMBNAIL_BLOCK_START

;
; THUMBNAIL_BLOCK_END

; external perimeters extrusion width = 0.42mm
; perimeters extrusion width = 0.45mm
; infill extrusion width = 0.45mm
; solid infill extrusion width = 0.42mm
; top infill extrusion width = 0.42mm
; support material extrusion width = 0.42mm
; first layer extrusion width = 0.50mm

; external perimeters extrusion width = 0.42mm
; perimeters extrusion width = 0.45mm
; infill extrusion width = 0.45mm
; solid infill extrusion width = 0.42mm
; top infill extrusion width = 0.42mm
; support material extrusion width = 0.42mm
; first layer extrusion width = 0.50mm

; EXECUTABLE_BLOCK_START
EXCLUDE_OBJECT_DEFINE NAME=tappo_ingeriore.stl_id_0_copy_0 CENTER=59.2001,111.803 POLYGON=[[12.2001,49.3032],[106.2,49.3032],[106.2,174.303],[12.2001,174.303],[12.2001,49.3032]]
EXCLUDE_OBJECT_DEFINE NAME=tappo_superiore.stl_id_1_copy_0 CENTER=168.073,111.496 POLYGON=[[121.073,48.9956],[215.073,48.9956],[215.073,173.996],[121.073,173.996],[121.073,48.9956]]
M73 P0 R69
;TYPE:Custom
M141 S15;set chamber_temperature
M220 S100 ;Reset Feedrate 
M221 S100 ;Reset Flowrate 
 
M140 S60 ;Set final bed temp  
G28 ;Home 
 
G92 E0 ;Reset Extruder 
G1 Z2.0 F3000 ;Move Z Axis up 
M104 S220 ;Set final nozzle temp  
G1 X-2.0 Y20 Z0.28 F5000.0 ;Move to start position 
M190 S60 ;Wait for bed temp to stabilize  
M109 S220 ;Wait for nozzle temp to stabilize  
G1 X-2.0 Y145.0 Z0.28 F1500.0 E15 ;Draw the first line 
G1 X-1.7 Y145.0 Z0.28 F5000.0 ;Move to side a little 
G1 X-1.7 Y20 Z0.28 F1500.0 E30 ;Draw the second line 
G92 E0 ;Reset Extruder 
G1 E-1.0000 F1800 ;Retract a bit 
G1 Z2.0 F3000 ;Move Z Axis up 
G1 E0.0000 F1800
G90
G21
M83 ; use relative distances for extrusion
; filament start gcode
SET_PRESSURE_ADVANCE ADVANCE=0.044; Override pressure advance value
G1 E-.8 F1800
M106 S0
;LAYER_CHANGE
;Z:0.2
;HEIGHT:0.2
;BEFORE_LAYER_CHANGE
;0.2
G92 E0

;_SET_FAN_SPEED_CHANGING_LAYER
SET_VELOCITY_LIMIT ACCEL=500 ACCEL_TO_DECEL=125
SET_VELOCITY_LIMIT SQUARE_CORNER_VELOCITY=9
; printing object tappo ingeriore.stl id:0 copy 0
EXCLUDE_OBJECT_START NAME=tappo_ingeriore.stl_id_0_copy_0
G1 Z.2 F18000
G1 X11.872 Y170.605
G1 E.8 F1800
;TYPE:Brim
;WIDTH:0.5
G1 F3000
G1 X11.872 Y174.303 E.13352
G1 X11.896 Y174.419 E.00429
G1 X12.005 Y174.556 E.00632
G1 X12.089 Y174.603 E.0035
G1 X12.2 Y174.632 E.00413
G1 X15.862 Y174.632 E.13223
G1 X15.77 Y175.335 E.02563
G1 X15.392 Y176.248 E.03566
G1 X14.791 Y177.031 E.03566
G1 X14.007 Y177.633 E.03566
G1 X13.095 Y178.011 E.03566
G1 X12.115 Y178.14 E.03566
G1 X11.136 Y178.011 E.03566
G1 X10.224 Y177.633 E.03566
G1 X9.44 Y177.031 E.03566
G1 X8.839 Y176.248 E.03566
G1 X8.461 Y175.335 E.03566
G1 X8.332 Y174.356 E.03566
G1 X8.461 Y173.377 E.03566
G1 X8.839 Y172.465 E.03566
G1 X9.44 Y171.681 E.03566
G1 X10.224 Y171.08 E.03566
G1 X11.136 Y170.702 E.03566
G1 X11.832 Y170.61 E.02534
G1 X11.339 Y171.164 F18000
G1 F3000
G1 X11.415 Y171.287 E.00519
G1 X11.415 Y174.293 E.10853
G1 X11.447 Y174.5 E.00758
G1 X11.548 Y174.717 E.00865
G1 X11.639 Y174.831 E.00525
G1 X11.857 Y174.997 E.00992
G1 X12.082 Y175.073 E.00857
G1 X12.209 Y175.089 E.0046
G1 X15.172 Y175.089 E.10699
G1 X15.276 Y175.137 E.00413
G1 X15.299 Y175.278 E.00519
G1 X14.999 Y176.001 E.02823
G1 X14.476 Y176.691 E.03129
G1 X13.76 Y177.24 E.03257
G1 X12.957 Y177.568 E.03129
G1 X12.133 Y177.676 E.03001
G1 X11.273 Y177.568 E.03129
G1 X10.44 Y177.222 E.03257
G1 X9.781 Y176.716 E.03001
G1 X9.249 Y176.032 E.03129
G1 X8.904 Y175.198 E.03257
G1 X8.796 Y174.374 E.03001
G1 X8.904 Y173.514 E.03129
G1 X9.249 Y172.681 E.03257
G1 X9.755 Y172.022 E.03001
G1 X10.44 Y171.49 E.03129
G1 X11.225 Y171.16 E.03075
G1 X11.299 Y171.163 E.00269
G1 X10.881 Y171.852 F18000
G1 F3000
G1 X10.957 Y171.975 E.00521
G1 X10.957 Y174.284 E.08336
G1 X10.994 Y174.562 E.01012
G1 X11.036 Y174.7 E.00524
G1 X11.197 Y175.008 E.01254
G1 X11.372 Y175.202 E.00942
G1 X11.571 Y175.354 E.00905
G1 X11.72 Y175.433 E.00609
G1 X12.034 Y175.527 E.01184
G1 X12.216 Y175.546 E.00658
G1 X14.488 Y175.546 E.08203
G1 X14.592 Y175.594 E.00413
G1 X14.623 Y175.704 E.00413
G1 X14.598 Y175.765 E.00241
G1 X14.16 Y176.35 E.02638
G1 X13.513 Y176.847 E.02945
G1 X12.856 Y177.116 E.02564
G1 X12.15 Y177.213 E.02573
G1 X11.375 Y177.115 E.02821
G1 X10.687 Y176.83 E.02686
G1 X10.12 Y176.4 E.0257
G1 X9.641 Y175.783 E.02821
G1 X9.356 Y175.096 E.02687
G1 X9.259 Y174.391 E.0257
G1 X9.357 Y173.616 E.02821
G1 X9.642 Y172.928 E.02686
G1 X10.071 Y172.361 E.0257
G1 X10.658 Y171.899 E.02696
G1 X10.767 Y171.848 E.00433
G1 X10.842 Y171.851 E.00269
G1 X10.452 Y172.86 F18000
G1 F3000
G1 X10.461 Y172.864 E.00035
G1 X10.5 Y172.959 E.00373
G1 X10.5 Y174.276 E.04753
G1 X10.54 Y174.613 E.01225
G1 X10.597 Y174.825 E.00793
G1 X10.786 Y175.209 E.01545
G1 X11.027 Y175.501 E.01367
G1 X11.365 Y175.761 E.01541
G1 X11.598 Y175.873 E.00932
G1 X11.998 Y175.983 E.01498
G1 X12.222 Y176.003 E.00812
G1 X13.459 Y176.003 E.04465
G1 X13.563 Y176.051 E.00413
G1 X13.594 Y176.161 E.00413
G1 X13.542 Y176.249 E.0037
G1 X13.267 Y176.454 E.01241
G1 X12.752 Y176.664 E.02006
G1 X12.129 Y176.75 E.02271
G1 X11.476 Y176.662 E.02379
G1 X10.902 Y176.42 E.02248
G1 X10.433 Y176.058 E.0214
G1 X10.033 Y175.534 E.02379
G1 X9.799 Y174.957 E.02248
G1 X9.722 Y174.37 E.0214
G1 X9.8 Y173.752 E.02248
G1 X10.035 Y173.173 E.02254
G1 X10.254 Y172.877 E.01332
G1 X10.355 Y172.823 E.00413
G1 X10.415 Y172.846 E.00233
G1 E-.56 F1800
;WIPE_START
G1 F3000
G1 X10.461 Y172.864 E-.01195
G1 X10.5 Y172.959 E-.02479
G1 X10.5 Y173.806 E-.20326
;WIPE_END
G1 X14.316 Y173.841 Z.4 F18000
G1 X102.502 Y174.632 Z.4
G1 Z.2
G1 E.8 F1800
G1 F3000
G1 X106.2 Y174.632 E.13352
G1 X106.316 Y174.608 E.00429
G1 X106.453 Y174.499 E.00632
G1 X106.5 Y174.414 E.0035
G1 X106.529 Y174.303 E.00413
G1 X106.529 Y170.641 E.13223
G1 X107.232 Y170.734 E.02563
G1 X108.145 Y171.112 E.03566
G1 X108.928 Y171.713 E.03566
G1 X109.53 Y172.496 E.03566
G1 X109.908 Y173.409 E.03566
G1 X110.036 Y174.388 E.03566
G1 X109.908 Y175.367 E.03566
G1 X109.53 Y176.28 E.03566
G1 X108.928 Y177.063 E.03566
G1 X108.145 Y177.664 E.03566
G1 X107.232 Y178.042 E.03566
G1 X106.253 Y178.171 E.03566
G1 X105.274 Y178.042 E.03566
G1 X104.362 Y177.664 E.03566
G1 X103.578 Y177.063 E.03566
G1 X102.977 Y176.28 E.03566
G1 X102.599 Y175.367 E.03566
G1 X102.507 Y174.671 E.02534
G1 X103.061 Y175.164 F18000
G1 F3000
G1 X103.184 Y175.089 E.00519
G1 X106.19 Y175.089 E.10853
G1 X106.397 Y175.057 E.00758
G1 X106.614 Y174.955 E.00865
G1 X106.727 Y174.864 E.00525
G1 X106.856 Y174.712 E.0072
G1 X106.944 Y174.521 E.00759
G1 X106.986 Y174.291 E.00845
G1 X106.986 Y171.331 E.10685
G1 X107.033 Y171.227 E.00413
G1 X107.175 Y171.205 E.00519
G1 X107.898 Y171.504 E.02823
G1 X108.613 Y172.053 E.03257
G1 X109.137 Y172.744 E.03129
G1 X109.455 Y173.511 E.03001
G1 X109.573 Y174.406 E.03257
G1 X109.465 Y175.23 E.03001
G1 X109.137 Y176.032 E.03129
G1 X108.588 Y176.748 E.03257
G1 X107.898 Y177.272 E.03129
G1 X107.13 Y177.59 E.03001
G1 X106.235 Y177.708 E.03257
G1 X105.411 Y177.599 E.03001
G1 X104.609 Y177.272 E.03129
G1 X103.918 Y176.748 E.03129
G1 X103.387 Y176.063 E.03129
G1 X103.057 Y175.278 E.03075
G1 X103.06 Y175.204 E.00269
G1 X103.749 Y175.622 F18000
G1 F3000
G1 X103.871 Y175.546 E.0052
G1 X106.27 Y175.539 E.08659
G1 X106.6 Y175.466 E.01222
G1 X106.801 Y175.372 E.00801
G1 X106.902 Y175.309 E.00432
G1 X107.08 Y175.154 E.00851
G1 X107.276 Y174.892 E.01183
G1 X107.396 Y174.59 E.01172
G1 X107.433 Y174.385 E.00752
G1 X107.443 Y172.015 E.08558
G1 X107.491 Y171.911 E.00413
G1 X107.65 Y171.896 E.00578
G1 X108.298 Y172.393 E.02945
G1 X108.727 Y172.959 E.02564
G1 X109.003 Y173.614 E.02568
G1 X109.11 Y174.424 E.02949
G1 X109.012 Y175.128 E.02568
G1 X108.744 Y175.786 E.02564
G1 X108.248 Y176.432 E.02942
G1 X107.682 Y176.861 E.02564
G1 X107.027 Y177.138 E.02568
M73 P0 R68
M73 P0 R68
G1 X106.217 Y177.244 E.02949
G1 X105.513 Y177.147 E.02568
G1 X104.854 Y176.878 E.0257
G1 X104.232 Y176.406 E.02821
G1 X103.796 Y175.845 E.02564
G1 X103.745 Y175.736 E.00433
G1 X103.748 Y175.662 E.00269
G1 X104.759 Y176.053 F18000
G1 F3000
G1 X104.765 Y176.039 E.00055
G1 X104.859 Y176 E.00367
G1 X106.379 Y175.982 E.0549
G1 X106.805 Y175.875 E.01587
G1 X107.046 Y175.758 E.00965
G1 X107.207 Y175.65 E.00701
G1 X107.454 Y175.418 E.01223
G1 X107.703 Y175.053 E.01594
G1 X107.847 Y174.663 E.01503
G1 X107.89 Y174.377 E.01044
G1 X107.896 Y173.027 E.04874
G1 X107.944 Y172.923 E.00413
G1 X108.054 Y172.892 E.00413
G1 X108.142 Y172.944 E.00371
G1 X108.335 Y173.205 E.0117
G1 X108.551 Y173.718 E.02009
G1 X108.646 Y174.441 E.02632
G1 X108.57 Y174.992 E.02009
G1 X108.351 Y175.539 E.02129
G1 X107.908 Y176.116 E.02627
G1 X107.436 Y176.469 E.02129
G1 X106.923 Y176.685 E.02009
G1 X106.237 Y176.781 E.02501
G1 X105.617 Y176.696 E.02262
G1 X105.099 Y176.485 E.02018
G1 X104.777 Y176.246 E.01444
G1 X104.724 Y176.146 E.00413
G1 X104.745 Y176.091 E.00213
G1 E-.56 F1800
;WIPE_START
G1 F3000
G1 X104.765 Y176.039 E-.01328
G1 X104.859 Y176 E-.0244
G1 X105.702 Y175.99 E-.20232
;WIPE_END
G1 X105.727 Y172.174 Z.4 F18000
G1 X106.529 Y53.001 Z.4
G1 Z.2
G1 E.8 F1800
G1 F3000
G1 X106.529 Y49.303 E.13352
G1 X106.504 Y49.187 E.00429
G1 X106.395 Y49.05 E.00632
G1 X106.311 Y49.003 E.0035
G1 X106.2 Y48.975 E.00413
G1 X102.538 Y48.975 E.13223
G1 X102.631 Y48.271 E.02563
G1 X103.009 Y47.358 E.03566
G1 X103.61 Y46.575 E.03566
G1 X104.393 Y45.974 E.03566
G1 X105.306 Y45.596 E.03566
G1 X106.285 Y45.467 E.03566
G1 X107.264 Y45.596 E.03566
G1 X108.176 Y45.974 E.03566
G1 X108.96 Y46.575 E.03566
G1 X109.561 Y47.358 E.03566
G1 X109.939 Y48.271 E.03566
G1 X110.068 Y49.25 E.03566
G1 X109.939 Y50.229 E.03566
G1 X109.561 Y51.142 E.03566
G1 X108.96 Y51.925 E.03566
G1 X108.176 Y52.526 E.03566
G1 X107.264 Y52.904 E.03566
G1 X106.568 Y52.996 E.02534
G1 X107.061 Y52.442 F18000
G1 F3000
G1 X106.986 Y52.32 E.00519
G1 X106.986 Y49.314 E.10853
G1 X106.954 Y49.106 E.00758
G1 X106.852 Y48.889 E.00865
G1 X106.761 Y48.776 E.00525
G1 X106.54 Y48.607 E.01005
G1 X106.421 Y48.56 E.0046
G1 X106.188 Y48.518 E.00857
G1 X103.228 Y48.518 E.10685
G1 X103.124 Y48.47 E.00413
G1 X103.102 Y48.328 E.00519
G1 X103.419 Y47.575 E.02951
G1 X103.925 Y46.915 E.03001
G1 X104.64 Y46.366 E.03257
G1 X105.443 Y46.039 E.03129
G1 X106.267 Y45.93 E.03001
G1 X107.127 Y46.039 E.03129
G1 X107.929 Y46.366 E.03129
G1 X108.645 Y46.915 E.03257
G1 X109.169 Y47.606 E.03129
G1 X109.496 Y48.408 E.03129
G1 X109.605 Y49.232 E.03001
G1 X109.496 Y50.092 E.03129
G1 X109.151 Y50.925 E.03257
G1 X108.62 Y51.61 E.03129
G1 X107.96 Y52.116 E.03001
G1 X107.175 Y52.446 E.03075
G1 X107.101 Y52.444 E.00269
G1 X107.519 Y51.754 F18000
G1 F3000
G1 X107.443 Y51.632 E.0052
G1 X107.436 Y49.234 E.08659
G1 X107.407 Y49.046 E.00685
G1 X107.363 Y48.903 E.0054
G1 X107.271 Y48.706 E.00786
G1 X107.125 Y48.5 E.00914
G1 X106.821 Y48.248 E.01425
G1 X106.703 Y48.181 E.00489
G1 X106.493 Y48.109 E.00801
G1 X106.282 Y48.07 E.00776
G1 X103.916 Y48.061 E.08542
G1 X103.812 Y48.012 E.00413
G1 X103.781 Y47.902 E.00413
G1 X103.806 Y47.842 E.00236
G1 X104.238 Y47.258 E.02623
G1 X104.887 Y46.759 E.02954
G1 X105.545 Y46.491 E.02564
G1 X106.251 Y46.393 E.02573
G1 X106.992 Y46.482 E.02696
G1 X107.714 Y46.777 E.02817
G1 X108.329 Y47.255 E.02811
G1 X108.775 Y47.851 E.02687
G1 X109.044 Y48.51 E.0257
G1 X109.142 Y49.216 E.02573
G1 X109.043 Y49.991 E.02821
G1 X108.741 Y50.708 E.02811
G1 X108.281 Y51.294 E.0269
G1 X107.743 Y51.707 E.02448
G1 X107.633 Y51.758 E.00437
G1 X107.559 Y51.756 E.00269
G1 X107.966 Y50.753 F18000
G1 F3000
G1 X107.934 Y50.74 E.00124
G1 X107.897 Y50.646 E.00363
G1 X107.893 Y49.241 E.05074
G1 X107.859 Y48.983 E.0094
G1 X107.802 Y48.776 E.00774
G1 X107.688 Y48.52 E.01012
G1 X107.502 Y48.242 E.0121
G1 X107.41 Y48.143 E.00486
G1 X107.038 Y47.846 E.01719
G1 X106.844 Y47.746 E.00789
G1 X106.569 Y47.658 E.01043
G1 X106.274 Y47.613 E.01078
G1 X104.936 Y47.608 E.0483
G1 X104.832 Y47.559 E.00413
G1 X104.801 Y47.449 E.00413
G1 X104.853 Y47.362 E.00368
G1 X105.102 Y47.17 E.01134
G1 X105.681 Y46.933 E.02259
G1 X106.272 Y46.856 E.02153
G1 X106.858 Y46.927 E.0213
G1 X107.466 Y47.17 E.02364
G1 X107.986 Y47.567 E.02362
G1 X108.364 Y48.064 E.02253
G1 X108.593 Y48.613 E.0215
G1 X108.678 Y49.2 E.02142
G1 X108.6 Y49.852 E.02371
G1 X108.332 Y50.489 E.02493
G1 X108.142 Y50.731 E.01111
G1 X108.04 Y50.783 E.00413
G1 X108.003 Y50.768 E.00144
G1 E-.56 F1800
;WIPE_START
G1 F3000
G1 X107.934 Y50.74 E-.01787
G1 X107.897 Y50.646 E-.02416
G1 X107.895 Y49.822 E-.19798
;WIPE_END
G1 X104.079 Y49.786 Z.4 F18000
G1 X15.898 Y48.975 Z.4
G1 Z.2
G1 E.8 F1800
G1 F3000
G1 X12.2 Y48.975 E.13352
G1 X12.084 Y48.999 E.00429
G1 X11.947 Y49.108 E.00632
G1 X11.9 Y49.193 E.0035
G1 X11.872 Y49.303 E.00413
G1 X11.872 Y52.965 E.13223
G1 X11.168 Y52.873 E.02563
G1 X10.255 Y52.495 E.03566
G1 X9.472 Y51.894 E.03566
G1 X8.871 Y51.11 E.03566
G1 X8.493 Y50.198 E.03566
G1 X8.364 Y49.218 E.03566
G1 X8.493 Y48.239 E.03566
G1 X8.871 Y47.327 E.03566
G1 X9.472 Y46.543 E.03566
G1 X10.255 Y45.942 E.03566
G1 X11.168 Y45.564 E.03566
G1 X12.147 Y45.435 E.03566
G1 X13.126 Y45.564 E.03566
G1 X14.039 Y45.942 E.03566
G1 X14.822 Y46.543 E.03566
G1 X15.423 Y47.327 E.03566
G1 X15.801 Y48.239 E.03566
G1 X15.893 Y48.935 E.02534
G1 X15.339 Y48.442 F18000
G1 F3000
G1 X15.217 Y48.518 E.00519
G1 X12.211 Y48.518 E.10853
G1 X12.003 Y48.55 E.00758
G1 X11.786 Y48.651 E.00865
G1 X11.673 Y48.742 E.00525
G1 X11.504 Y48.964 E.01005
G1 X11.457 Y49.082 E.0046
G1 X11.415 Y49.316 E.00857
G1 X11.415 Y52.275 E.10685
G1 X11.367 Y52.379 E.00413
G1 X11.225 Y52.402 E.00519
G1 X10.472 Y52.085 E.02951
G1 X9.812 Y51.579 E.03001
G1 X9.263 Y50.863 E.03257
G1 X8.936 Y50.06 E.03129
G1 X8.827 Y49.236 E.03001
G1 X8.945 Y48.342 E.03257
G1 X9.281 Y47.543 E.03129
G1 X9.787 Y46.884 E.03001
G1 X10.503 Y46.334 E.03257
G1 X11.305 Y46.007 E.03129
G1 X12.129 Y45.899 E.03001
G1 X12.989 Y46.007 E.03129
G1 X13.791 Y46.334 E.03129
G1 X14.507 Y46.884 E.03257
G1 X15.031 Y47.574 E.03129
G1 X15.343 Y48.328 E.02946
G1 X15.34 Y48.402 E.00269
G1 X14.655 Y47.985 F18000
G1 F3000
G1 X14.533 Y48.061 E.00518
G1 X12.131 Y48.067 E.08673
G1 X11.8 Y48.14 E.01222
G1 X11.603 Y48.232 E.00786
G1 X11.396 Y48.379 E.00914
G1 X11.145 Y48.682 E.01425
G1 X11.078 Y48.8 E.00489
G1 X11.006 Y49.01 E.00801
G1 X10.967 Y49.221 E.00776
G1 X10.957 Y51.587 E.08542
G1 X10.909 Y51.691 E.00413
G1 X10.799 Y51.722 E.00413
G1 X10.739 Y51.697 E.00236
G1 X10.154 Y51.265 E.02623
G1 X9.656 Y50.616 E.02954
G1 X9.388 Y49.959 E.02564
G1 X9.291 Y49.254 E.02568
G1 X9.397 Y48.446 E.02945
G1 X9.673 Y47.791 E.02564
G1 X10.102 Y47.224 E.02568
G1 X10.717 Y46.746 E.02815
G1 X11.441 Y46.45 E.02821
G1 X12.148 Y46.362 E.02573
G1 X12.854 Y46.451 E.0257
G1 X13.545 Y46.728 E.02687
G1 X14.166 Y47.198 E.02811
G1 X14.621 Y47.789 E.02695
G1 X14.659 Y47.871 E.00326
G1 X14.656 Y47.945 E.00269
G1 X13.641 Y47.553 F18000
G1 F3000
G1 X13.635 Y47.567 E.00055
G1 X13.54 Y47.606 E.00372
G1 X12.142 Y47.61 E.05048
G1 X11.712 Y47.692 E.01579
G1 X11.416 Y47.816 E.01161
G1 X11.139 Y48.002 E.01205
G1 X11.04 Y48.093 E.00486
G1 X10.743 Y48.465 E.01719
G1 X10.643 Y48.661 E.00794
G1 X10.576 Y48.853 E.00734
G1 X10.52 Y49.129 E.01018
G1 X10.505 Y50.568 E.05197
G1 X10.456 Y50.672 E.00413
G1 X10.345 Y50.702 E.00413
G1 X10.259 Y50.65 E.00365
G1 X10.049 Y50.37 E.01265
G1 X9.83 Y49.822 E.02128
G1 X9.754 Y49.271 E.02008
G1 X9.84 Y48.584 E.02499
G1 X10.065 Y48.037 E.02137
G1 X10.444 Y47.537 E.02266
G1 X10.966 Y47.138 E.02371
G1 X11.576 Y46.894 E.02371
G1 X12.165 Y46.825 E.02142
G1 X12.755 Y46.904 E.0215
G1 X13.301 Y47.122 E.02123
G1 X13.623 Y47.36 E.01445
G1 X13.677 Y47.461 E.00413
G1 X13.655 Y47.516 E.00214
G1 E-.56 F1800
;WIPE_START
G1 F3000
G1 X13.635 Y47.567 E-.01323
G1 X13.54 Y47.606 E-.0247
G1 X12.698 Y47.609 E-.20208
;WIPE_END
G1 X14.953 Y50.688 Z.4 F18000
G1 X104.822 Y173.425 Z.4
G1 Z.2
G1 E.8 F1800
;TYPE:Inner wall
;WIDTH:0.499999
G1 F3000
G1 X13.079 Y173.425 E3.31247
