; HEADER_BLOCK_START
; generated by Creality_Print V6.0.3.1591 on 2025-02-28 at 20:59:33
; total layer number: 50
; filament_density: 1.04
; filament_diameter: 1.75
; max_z_height: 10.00
; HEADER_BLOCK_END

; MINX = 61.50
; MINY = 45.50
; MINZ = 0.00
; MAXX = 158.50
; MAXY = 174.50
; MAXZ = 10.00

; THUMBNAIL_BLOCK_START

;
; THUMBNAIL_BLOCK_END

; external perimeters extrusion width = 0.42mm
; perimeters extrusion width = 0.45mm
; infill extrusion width = 0.45mm
; solid infill extrusion width = 0.45mm
; top infill extrusion width = 0.42mm
; support material extrusion width = 0.38mm
; first layer extrusion width = 0.50mm

; EXECUTABLE_BLOCK_START
M73 P0 R106
M201 X500 Y500 Z100 E5000
M203 X500 Y500 Z10 E60
M204 P500 R1000 T500
M205 X12.00 Y12.00 Z0.40 E5.00 ; sets the jerk limits, mm/sec
;TYPE:Custom
G90 ; use absolute coordinates
M83 ; extruder relative mode
M104 S150 ; set temporary nozzle temp to prevent oozing during homing
M140 S110 ; set final bed temp
G4 S30 ; allow partial nozzle warmup
G28 ; home all axis and restore leveling
G1 Z50 F240
G1 X2.0 Y10 F3000
M73 P0 R105
M104 S240 ; set final nozzle temp
M190 S110 ; wait for bed temp to stabilize
M109 S240 ; wait for nozzle temp to stabilize
M73 P0 R105
G1 Z0.28 F240
G92 E0
G1 X2.0 Y140 E10 F1500 ; prime the nozzle
G1 X2.3 Y140 F5000
G92 E0
G1 X2.3 Y10 E10 F1200 ; prime the nozzle
G92 E0
G90
G21
M83 ; use relative distances for extrusion
; Filament gcode
G1 E-2 F2400
M106 S0
;LAYER_CHANGE
;Z:0.2
;HEIGHT:0.2
;BEFORE_LAYER_CHANGE
;0.2
G92 E0

;_SET_FAN_SPEED_CHANGING_LAYER
M204 S500
M205 X9 Y9
; printing object tappo_superiore.stl id:8171063952611762432 copy 0
G1 Z.4 F7200
G1 X58 Y42.776
G1 Z.2
G1 E2 F2100
;TYPE:Brim
;WIDTH:0.5
G1 F1800
G1 X58.426 Y42.297 E.02313
G1 X58.919 Y41.886 E.02317
G1 X59.464 Y41.553 E.02305
G1 X60.302 Y41.227 E.03248
G1 X60.929 Y41.096 E.02313
G1 X61.508 Y41.058 E.02093
G1 X158.492 Y41.058 E3.50171
G1 X159.14 Y41.106 E.02348
G1 X159.763 Y41.246 E.02304
G1 X160.606 Y41.603 E.03307
G1 X161.224 Y42 E.02653
G1 X161.703 Y42.426 E.02313
G1 X162.114 Y42.919 E.02317
G1 X162.447 Y43.464 E.02305
G1 X162.773 Y44.302 E.03248
G1 X162.904 Y44.929 E.02313
G1 X162.942 Y45.508 E.02093
G1 X162.942 Y174.492 E4.6571
G1 X162.894 Y175.14 E.02348
G1 X162.754 Y175.763 E.02304
G1 X162.397 Y176.606 E.03307
G1 X162 Y177.224 E.02653
G1 X161.574 Y177.703 E.02313
G1 X161.081 Y178.114 E.02317
G1 X160.536 Y178.447 E.02305
G1 X159.698 Y178.773 E.03248
G1 X159.071 Y178.904 E.02313
G1 X158.492 Y178.942 E.02093
G1 X61.508 Y178.942 E3.5017
G1 X60.86 Y178.894 E.02348
G1 X60.237 Y178.754 E.02304
G1 X59.394 Y178.397 E.03307
G1 X58.776 Y178 E.02653
G1 X58.297 Y177.574 E.02313
G1 X57.886 Y177.081 E.02317
G1 X57.553 Y176.536 E.02305
G1 X57.227 Y175.698 E.03248
G1 X57.096 Y175.071 E.02313
G1 X57.058 Y174.492 E.02093
G1 X57.058 Y45.508 E4.6571
G1 X57.106 Y44.86 E.02348
G1 X57.246 Y44.237 E.02304
G1 X57.603 Y43.394 E.03307
G1 X57.978 Y42.809 E.02509
G1 X58.36 Y43.062 F7200
G1 F1800
G1 X58.753 Y42.62 E.02136
G1 X59.194 Y42.253 E.02072
G1 X59.678 Y41.96 E.02043
G1 X60.444 Y41.664 E.02962
G1 X60.982 Y41.552 E.01985
G1 X61.527 Y41.515 E.01973
G1 X158.48 Y41.515 E3.50057
G1 X159.062 Y41.558 E.02109
G1 X159.61 Y41.68 E.02026
G1 X160.381 Y42.005 E.0302
G1 X160.938 Y42.36 E.02385
G1 X161.366 Y42.738 E.02063
G1 X161.747 Y43.194 E.02145
G1 X162.04 Y43.678 E.02043
G1 X162.336 Y44.444 E.02962
G1 X162.448 Y44.982 E.01985
G1 X162.485 Y45.527 E.01974
G1 X162.485 Y174.47 E4.6556
G1 X162.442 Y175.062 E.02146
G1 X162.312 Y175.633 E.02114
G1 X161.995 Y176.381 E.02932
G1 X161.64 Y176.938 E.02385
G1 X161.247 Y177.38 E.02136
G1 X160.806 Y177.747 E.02072
G1 X160.322 Y178.04 E.02043
G1 X159.556 Y178.336 E.02962
G1 X159.018 Y178.448 E.01985
G1 X158.473 Y178.485 E.01974
G1 X61.53 Y178.485 E3.5002
G1 X60.938 Y178.442 E.02146
M73 P1 R104
M73 P1 R104
G1 X60.367 Y178.312 E.02114
G1 X59.619 Y177.995 E.02932
G1 X59.062 Y177.64 E.02385
G1 X58.62 Y177.247 E.02136
G1 X58.253 Y176.806 E.02072
G1 X57.96 Y176.322 E.02043
G1 X57.664 Y175.556 E.02962
G1 X57.552 Y175.018 E.01985
G1 X57.515 Y174.473 E.01973
G1 X57.515 Y45.53 E4.6556
G1 X57.558 Y44.938 E.02146
G1 X57.688 Y44.367 E.02114
G1 X58.005 Y43.619 E.02932
G1 X58.338 Y43.095 E.02241
G1 X58.719 Y43.347 F7200
G1 F1800
G1 X59.079 Y42.943 E.01955
G1 X59.469 Y42.621 E.01823
G1 X59.892 Y42.368 E.01781
G1 X60.585 Y42.102 E.02679
G1 X61.054 Y42.005 E.0173
G1 X61.547 Y41.972 E.01786
G1 X158.458 Y41.972 E3.49905
G1 X158.985 Y42.011 E.0191
G1 X159.482 Y42.122 E.01837
G1 X160.178 Y42.417 E.02729
G1 X160.653 Y42.72 E.02035
G1 X161.03 Y43.051 E.01809
G1 X161.367 Y43.452 E.01894
G1 X161.632 Y43.892 E.01853
G1 X161.898 Y44.585 E.02679
G1 X161.995 Y45.054 E.0173
G1 X162.028 Y45.547 E.01786
G1 X162.028 Y174.448 E4.65408
G1 X161.989 Y174.984 E.01942
G1 X161.871 Y175.504 E.01924
G1 X161.594 Y176.157 E.02562
G1 X161.281 Y176.653 E.02117
G1 X160.921 Y177.057 E.01955
G1 X160.531 Y177.379 E.01823
G1 X160.108 Y177.632 E.01781
G1 X159.415 Y177.898 E.02679
G1 X158.946 Y177.995 E.0173
G1 X158.453 Y178.028 E.01786
G1 X61.552 Y178.028 E3.49869
G1 X61.016 Y177.989 E.01942
G1 X60.496 Y177.871 E.01924
G1 X59.843 Y177.594 E.02562
G1 X59.347 Y177.281 E.02117
G1 X58.943 Y176.921 E.01955
G1 X58.621 Y176.531 E.01823
G1 X58.368 Y176.108 E.01781
G1 X58.102 Y175.415 E.02679
G1 X58.005 Y174.946 E.0173
G1 X57.972 Y174.453 E.01786
G1 X57.972 Y45.552 E4.65408
G1 X58.011 Y45.016 E.01942
G1 X58.129 Y44.496 E.01924
G1 X58.406 Y43.843 E.02562
G1 X58.698 Y43.381 E.01972
G1 X59.08 Y43.633 F7200
G1 F1800
G1 X59.406 Y43.266 E.0177
G1 X59.742 Y42.99 E.0157
G1 X60.104 Y42.776 E.01519
G1 X60.724 Y42.54 E.02398
G1 X61.125 Y42.458 E.01476
G1 X61.567 Y42.429 E.01601
G1 X158.436 Y42.429 E3.49754
G1 X158.908 Y42.464 E.0171
G1 X159.353 Y42.564 E.01647
G1 X159.974 Y42.829 E.02439
G1 X160.369 Y43.081 E.0169
G1 X160.694 Y43.364 E.01557
G1 X160.987 Y43.711 E.01639
G1 X161.224 Y44.105 E.0166
G1 X161.46 Y44.724 E.02394
G1 X161.542 Y45.125 E.01476
G1 X161.571 Y45.567 E.01601
G1 X161.571 Y174.426 E4.65258
G1 X161.533 Y174.927 E.01812
G1 X161.429 Y175.374 E.01658
G1 X161.192 Y175.934 E.02197
G1 X160.92 Y176.367 E.01847
G1 X160.594 Y176.734 E.0177
G1 X160.258 Y177.01 E.0157
G1 X159.896 Y177.224 E.01519
G1 X159.276 Y177.46 E.02398
G1 X158.875 Y177.542 E.01476
G1 X158.433 Y177.571 E.01601
G1 X61.574 Y177.571 E3.49719
G1 X61.073 Y177.533 E.01812
G1 X60.626 Y177.429 E.01658
G1 X60.066 Y177.192 E.02197
G1 X59.633 Y176.92 E.01847
G1 X59.266 Y176.594 E.0177
G1 X58.99 Y176.258 E.0157
G1 X58.776 Y175.896 E.01519
G1 X58.54 Y175.276 E.02398
G1 X58.458 Y174.875 E.01476
G1 X58.429 Y174.433 E.01601
G1 X58.429 Y45.574 E4.65258
G1 X58.467 Y45.073 E.01812
G1 X58.571 Y44.626 E.01658
G1 X58.808 Y44.066 E.02197
G1 X59.059 Y43.666 E.01702
G1 X59.441 Y43.917 F7200
G1 F1800
G1 X59.732 Y43.59 E.01582
G1 X60.014 Y43.361 E.01312
G1 X60.314 Y43.185 E.01256
G1 X60.863 Y42.978 E.02119
G1 X61.195 Y42.912 E.01222
G1 X61.587 Y42.886 E.01419
G1 X158.414 Y42.886 E3.49605
G1 X158.831 Y42.916 E.01507
G1 X159.223 Y43.006 E.01454
G1 X159.77 Y43.241 E.02149
G1 X160.086 Y43.442 E.01353
G1 X160.36 Y43.679 E.01307
G1 X160.62 Y43.987 E.01458
G1 X160.816 Y44.317 E.01384
G1 X161.022 Y44.863 E.02108
G1 X161.088 Y45.195 E.01222
G1 X161.114 Y45.587 E.01419
G1 X161.114 Y174.404 E4.65106
G1 X161.081 Y174.847 E.01604
G1 X160.988 Y175.243 E.01468
G1 X160.79 Y175.712 E.01841
G1 X160.559 Y176.083 E.01575
G1 X160.268 Y176.41 E.01582
G1 X159.986 Y176.639 E.01312
G1 X159.686 Y176.815 E.01256
G1 X159.137 Y177.022 E.02119
G1 X158.805 Y177.088 E.01222
G1 X158.413 Y177.114 E.01419
G1 X61.596 Y177.114 E3.49567
G1 X61.153 Y177.081 E.01604
G1 X60.757 Y176.988 E.01468
G1 X60.288 Y176.79 E.01841
G1 X59.917 Y176.559 E.01575
G1 X59.59 Y176.268 E.01582
G1 X59.361 Y175.986 E.01312
G1 X59.185 Y175.686 E.01256
G1 X58.978 Y175.137 E.02119
G1 X58.912 Y174.805 E.01222
G1 X58.886 Y174.413 E.01419
G1 X58.886 Y45.596 E4.65106
G1 X58.919 Y45.153 E.01603
G1 X59.012 Y44.757 E.01468
G1 X59.21 Y44.288 E.01841
G1 X59.42 Y43.951 E.01431
G1 X59.79 Y44.246 F7200
G1 F1800
G1 X59.98 Y44.008 E.011
G1 X60.342 Y43.708 E.01696
G1 X60.685 Y43.523 E.01408
G1 X61.053 Y43.404 E.01396
G1 X61.536 Y43.343 E.0176
G1 X158.459 Y43.343 E3.49951
G1 X158.896 Y43.397 E.01589
G1 X159.398 Y43.565 E.01912
G1 X159.516 Y43.625 E.00478
G1 X159.861 Y43.861 E.0151
G1 X160.226 Y44.24 E.01899
G1 X160.323 Y44.391 E.00647
G1 X160.547 Y44.87 E.01911
G1 X160.615 Y45.145 E.01024
G1 X160.657 Y45.535 E.01413
G1 X160.657 Y174.459 E4.65495
G1 X160.603 Y174.896 E.01589
M73 P1 R103
M73 P1 R103
G1 X160.435 Y175.398 E.01912
G1 X160.375 Y175.516 E.00478
G1 X160.139 Y175.861 E.0151
G1 X159.76 Y176.226 E.01899
G1 X159.609 Y176.323 E.00647
G1 X159.13 Y176.547 E.01911
G1 X158.855 Y176.615 E.01024
G1 X158.465 Y176.657 E.01413
G1 X61.541 Y176.657 E3.49956
G1 X61.104 Y176.603 E.01589
M73 P2 R103
M73 P2 R103
G1 X60.602 Y176.435 E.01912
G1 X60.484 Y176.375 E.00478
G1 X60.139 Y176.139 E.0151
G1 X59.774 Y175.76 E.01899
G1 X59.677 Y175.609 E.00647
G1 X59.453 Y175.13 E.01911
G1 X59.385 Y174.855 E.01024
G1 X59.343 Y174.465 E.01413
G1 X59.343 Y45.541 E4.65495
G1 X59.399 Y45.092 E.01635
G1 X59.503 Y44.733 E.01348
G1 X59.698 Y44.362 E.01514
G1 X59.765 Y44.277 E.00389
G1 X60.111 Y44.565 F7200
G1 F1800
G1 X60.339 Y44.291 E.01286
G1 X60.631 Y44.062 E.01339
G1 X60.898 Y43.927 E.01083
G1 X61.192 Y43.839 E.01107
G1 X61.527 Y43.8 E.01218
G1 X158.468 Y43.8 E3.50013
G1 X158.846 Y43.852 E.01378
G1 X159.251 Y43.997 E.01552
G1 X159.615 Y44.246 E.01593
G1 X159.843 Y44.49 E.01207
G1 X159.91 Y44.588 E.00429
G1 X160.104 Y44.978 E.01572
G1 X160.161 Y45.19 E.00793
G1 X160.2 Y45.527 E.01225
G1 X160.2 Y174.468 E4.65552
G1 X160.148 Y174.846 E.01378
G1 X160.003 Y175.251 E.01552
G1 X159.754 Y175.615 E.01593
G1 X159.51 Y175.843 E.01207
G1 X159.412 Y175.91 E.00429
G1 X159.022 Y176.104 E.01572
G1 X158.81 Y176.161 E.00793
G1 X158.473 Y176.2 E.01225
G1 X61.532 Y176.2 E3.50013
G1 X61.154 Y176.148 E.01378
G1 X60.749 Y176.003 E.01552
G1 X60.385 Y175.754 E.01593
G1 X60.157 Y175.51 E.01207
G1 X60.09 Y175.412 E.00429
G1 X59.896 Y175.022 E.01572
G1 X59.839 Y174.81 E.00793
G1 X59.8 Y174.473 E.01225
G1 X59.8 Y45.532 E4.65552
G1 X59.853 Y45.144 E.01413
G1 X59.943 Y44.858 E.01082
G1 X60.089 Y44.598 E.0108
G1 X60.444 Y44.879 F7200
G1 F1800
G1 X60.696 Y44.575 E.01425
G1 X60.903 Y44.429 E.00914
G1 X61.1 Y44.337 E.00786
G1 X61.242 Y44.294 E.00534
G1 X61.519 Y44.257 E.01012
G1 X158.477 Y44.257 E3.50075
G1 X158.789 Y44.305 E.01138
G1 X159.088 Y44.424 E.01165
G1 X159.351 Y44.62 E.01183
G1 X159.503 Y44.794 E.00833
G1 X159.664 Y45.103 E.01259
G1 X159.706 Y45.242 E.00524
G1 X159.743 Y45.519 E.01012
G1 X159.743 Y174.477 E4.65615
G1 X159.695 Y174.789 E.01138
G1 X159.576 Y175.088 E.01165
G1 X159.38 Y175.351 E.01183
G1 X159.206 Y175.503 E.00833
G1 X158.897 Y175.664 E.01259
G1 X158.758 Y175.706 E.00524
G1 X158.481 Y175.743 E.01012
G1 X61.523 Y175.743 E3.50075
G1 X61.211 Y175.695 E.01138
G1 X60.912 Y175.576 E.01165
G1 X60.649 Y175.38 E.01183
G1 X60.497 Y175.206 E.00833
G1 X60.336 Y174.897 E.01259
G1 X60.294 Y174.758 E.00524
G1 X60.257 Y174.481 E.01012
G1 X60.257 Y45.523 E4.65615
G1 X60.306 Y45.205 E.01162
G1 X60.378 Y44.997 E.00794
G1 X60.425 Y44.914 E.00344
G1 X60.804 Y45.16 F7200
G1 F1800
G1 X60.973 Y44.939 E.01005
G1 X61.086 Y44.848 E.00525
G1 X61.303 Y44.746 E.00865
G1 X61.511 Y44.714 E.00758
G1 X158.488 Y44.714 E3.50145
G1 X158.718 Y44.757 E.00845
G1 X158.909 Y44.844 E.00759
G1 X159.061 Y44.973 E.0072
G1 X159.152 Y45.086 E.00525
G1 X159.254 Y45.303 E.00865
G1 X159.286 Y45.511 E.00758
G1 X159.286 Y174.488 E4.65685
G1 X159.243 Y174.718 E.00845
G1 X159.156 Y174.909 E.00759
G1 X159.027 Y175.061 E.0072
G1 X158.914 Y175.152 E.00525
G1 X158.697 Y175.254 E.00865
G1 X158.489 Y175.286 E.00758
G1 X61.512 Y175.286 E3.50145
G1 X61.282 Y175.243 E.00845
G1 X61.091 Y175.156 E.00759
G1 X60.939 Y175.027 E.0072
G1 X60.848 Y174.914 E.00525
G1 X60.746 Y174.697 E.00865
G1 X60.714 Y174.489 E.00758
G1 X60.714 Y45.512 E4.65685
G1 X60.757 Y45.279 E.00857
G1 X60.789 Y45.198 E.00316
G1 X61.2 Y45.389 F7200
G1 F1800
G1 X61.247 Y45.305 E.0035
G1 X61.384 Y45.196 E.00632
G1 X61.5 Y45.171 E.00429
G1 X158.5 Y45.171 E3.50228
G1 X158.611 Y45.2 E.00413
G1 X158.695 Y45.247 E.0035
G1 X158.804 Y45.384 E.00632
G1 X158.829 Y45.5 E.00429
G1 X158.829 Y174.5 E4.65768
G1 X158.8 Y174.611 E.00413
M73 P2 R102
M73 P2 R102
G1 X158.753 Y174.695 E.0035
G1 X158.616 Y174.804 E.00632
G1 X158.5 Y174.829 E.00429
G1 X61.5 Y174.829 E3.50228
G1 X61.389 Y174.8 E.00413
G1 X61.305 Y174.753 E.0035
G1 X61.196 Y174.616 E.00632
G1 X61.171 Y174.5 E.00429
G1 X61.171 Y45.5 E4.65768
G1 X61.19 Y45.428 E.00268
M73 P3 R102
M73 P3 R102
G1 E-1.4 F2400
;WIPE_START
G1 F1800
G1 X61.247 Y45.305 E-.08155
G1 X61.384 Y45.196 E-.10495
G1 X61.5 Y45.171 E-.07127
G1 X62.07 Y45.171 E-.34223
;WIPE_END
G1 X62.657 Y52.781 Z.6 F7200
G1 X68.329 Y126.321 Z.6
G1 X68.329 Y126.879
G1 Z.2
G1 E2 F2100
G1 F1800
G1 X143.671 Y126.879 E2.72033
G1 X143.671 Y166.721 E1.43857
G1 X68.329 Y166.721 E2.72033
G1 X68.329 Y126.919 E1.43712
G1 X68.833 Y127.369 F7200
G1 F1800
G1 X68.923 Y127.336 E.00344
G1 X143.077 Y127.336 E2.67742
G1 X143.181 Y127.383 E.00413
G1 X143.214 Y127.473 E.00344
G1 X143.214 Y166.127 E1.39566
G1 X143.167 Y166.231 E.00413
G1 X143.077 Y166.264 E.00344
G1 X68.923 Y166.264 E2.67742
G1 X68.819 Y166.217 E.00413
G1 X68.786 Y166.127 E.00344
G1 X68.786 Y127.473 E1.39566
G1 X68.817 Y127.405 E.00269
G1 X69.29 Y127.826 F7200
G1 F1800
G1 X69.38 Y127.793 E.00344
G1 X142.62 Y127.793 E2.64442
G1 X142.724 Y127.84 E.00413
G1 X142.757 Y127.93 E.00344
G1 X142.757 Y165.67 E1.36265
G1 X142.71 Y165.774 E.00413
G1 X142.62 Y165.807 E.00344
G1 X69.38 Y165.807 E2.64442
G1 X69.276 Y165.76 E.00413
G1 X69.243 Y165.67 E.00344
G1 X69.243 Y127.93 E1.36265
G1 X69.274 Y127.862 E.00269
G1 X69.747 Y128.283 F7200
G1 F1800
G1 X69.837 Y128.25 E.00344
G1 X142.163 Y128.25 E2.61141
G1 X142.267 Y128.297 E.00413
G1 X142.3 Y128.387 E.00344
G1 X142.3 Y165.213 E1.32965
G1 X142.253 Y165.317 E.00413
G1 X142.163 Y165.35 E.00344
G1 X69.837 Y165.35 E2.61141
G1 X69.733 Y165.303 E.00413
G1 X69.7 Y165.213 E.00344
G1 X69.7 Y128.387 E1.32965
G1 X69.731 Y128.319 E.00269
G1 X70.205 Y128.74 F7200
G1 F1800
G1 X70.294 Y128.707 E.00344
G1 X141.706 Y128.707 E2.5784
G1 X141.81 Y128.755 E.00413
G1 X141.843 Y128.844 E.00344
G1 X141.843 Y164.756 E1.29664
G1 X141.795 Y164.86 E.00413
G1 X141.706 Y164.893 E.00344
G1 X70.294 Y164.893 E2.5784
G1 X70.19 Y164.845 E.00413
G1 X70.157 Y164.756 E.00344
G1 X70.157 Y128.844 E1.29664
G1 X70.188 Y128.776 E.00269
G1 E-1.4 F2400
;WIPE_START
G1 F1800
G1 X70.294 Y128.707 E-.0761
G1 X71.167 Y128.707 E-.5239
;WIPE_END
G1 X77.968 Y132.172 Z.6 F7200
G1 X140.989 Y164.278 Z.6
G1 Z.2
G1 E2 F2100
G1 F1800
G1 X141.032 Y164.198 E.00331
G1 X141.157 Y164.084 E.00608
G1 X141.266 Y164.049 E.00413
G1 X141.363 Y164.109 E.00413
G1 X141.386 Y164.186 E.00287
G1 X141.386 Y164.299 E.00409
G1 X141.338 Y164.403 E.00413
G1 X141.249 Y164.436 E.00344
G1 X141.124 Y164.436 E.0045
G1 X141.02 Y164.388 E.00413
G1 X141 Y164.317 E.00269
G1 E-1.4 F2400
;WIPE_START
G1 F1800
G1 X141.032 Y164.198 E-.07413
G1 X141.157 Y164.084 E-.10104
G1 X141.266 Y164.049 E-.06864
G1 X141.363 Y164.109 E-.06864
G1 X141.386 Y164.186 E-.04771
G1 X141.386 Y164.299 E-.06803
G1 X141.338 Y164.403 E-.06864
G1 X141.249 Y164.436 E-.05721
G1 X141.172 Y164.436 E-.04597
;WIPE_END
G1 X141.185 Y156.804 Z.6 F7200
G1 X141.228 Y129.561 Z.6
G1 Z.2
G1 E2 F2100
G1 F1800
G1 X141.148 Y129.518 E.00331
G1 X141.034 Y129.393 E.00608
G1 X140.999 Y129.284 E.00413
G1 X141.059 Y129.187 E.00413
G1 X141.136 Y129.164 E.00287
G1 X141.249 Y129.164 E.00409
G1 X141.353 Y129.212 E.00413
G1 X141.386 Y129.301 E.00344
G1 X141.386 Y129.426 E.0045
G1 X141.338 Y129.53 E.00413
G1 X141.267 Y129.55 E.00269
G1 X140.85 Y129.879 F7200
G1 F1800
G1 X141.022 Y130.097 E.01003
G1 X141.222 Y130.492 E.01598
G1 X141.29 Y130.682 E.0073
G1 X141.386 Y131.271 E.02155
G1 X141.386 Y162.331 E1.12144
G1 X141.293 Y162.904 E.02097
G1 X141.142 Y163.313 E.01575
G1 X140.968 Y163.597 E.012
G1 X140.797 Y163.801 E.00962
G1 X140.453 Y164.072 E.01582
